; generated by Slic3r 0.8.5-dev on 2012-09-09 at 23:01:31

; layer_height = 0.4
; perimeters = 2
; solid_layers = 3
; fill_density = 0.25
; perimeter_speed = 90
; infill_speed = 190
; travel_speed = 300
; scale = 1
; nozzle_diameter = 0.5
; filament_diameter = 2.89
; extrusion_multiplier = 0.98
; single wall width = 0.53mm
; first layer single wall width = 0.80mm

G28 ; home all axes
G90 ; use absolute coordinates
G21 ; set units to millimeters
G92 E0
M82 ; use absolute distances for extrusion
G1 Z0.600 F18000.000
G1 X59.000 Y14.910
G1 F2100.000 E1.40000
G1 X59.330 Y14.420 F2970.000 E1.42597
G1 X59.700 Y13.960 E1.45192
G1 X60.310 Y13.330 E1.49047
G1 X60.990 Y12.780 E1.52892
G1 X61.480 Y12.460 E1.55464
G1 X62.260 Y12.040 E1.59359
G1 X62.800 Y11.820 E1.61922
G1 X63.360 Y11.640 E1.64508
G1 X63.930 Y11.510 E1.67078
G1 X64.800 Y11.390 E1.70938
G1 X65.390 Y11.360 E1.73535
G1 X75.140 Y11.370 E2.16396
G1 X76.060 Y11.460 E2.20460
G1 X76.960 Y11.670 E2.24522
G1 X77.250 Y11.760 E2.25857
G1 X78.100 Y12.110 E2.29898
G1 X108.670 Y30.050 E3.85714
G1 X109.170 Y30.400 E3.88397
G1 X109.860 Y31.000 E3.92417
G1 X110.270 Y31.440 E3.95060
G1 X110.830 Y32.160 E3.99070
G1 X131.150 Y64.950 E5.68647
G1 X131.420 Y65.480 E5.71262
G1 X131.650 Y66.030 E5.73883
G1 X131.840 Y66.600 E5.76524
G1 X131.980 Y67.180 E5.79147
G1 X132.100 Y68.060 E5.83051
G1 X132.120 Y91.630 E6.86664
G1 X132.030 Y92.520 E6.90596
G1 X131.980 Y92.810 E6.91890
G1 X131.840 Y93.390 E6.94513
G1 X131.650 Y93.960 E6.97154
G1 X131.420 Y94.510 E6.99775
G1 X131.150 Y95.040 E7.02390
G1 X110.830 Y127.820 E8.71930
G1 X110.470 Y128.310 E8.74602
G1 X109.860 Y128.980 E8.78586
G1 X109.170 Y129.580 E8.82605
G1 X108.670 Y129.930 E8.85288
G1 X78.380 Y147.740 E10.39754
G1 X78.110 Y147.880 E10.41090
G1 X77.250 Y148.230 E10.45172
G1 X76.360 Y148.470 E10.49224
G1 X76.060 Y148.530 E10.50569
G1 X75.140 Y148.620 E10.54633
G1 X74.830 Y148.630 E10.55996
G1 X65.100 Y148.620 E10.98769
G1 X64.510 Y148.570 E11.01372
G1 X63.930 Y148.480 E11.03952
G1 X63.360 Y148.350 E11.06522
G1 X62.800 Y148.170 E11.09108
G1 X62.260 Y147.950 E11.11671
G1 X61.480 Y147.530 E11.15565
G1 X60.990 Y147.210 E11.18138
G1 X60.310 Y146.660 E11.21983
G1 X59.700 Y146.030 E11.25838
G1 X59.330 Y145.570 E11.28433
G1 X38.710 Y112.570 E12.99491
G1 X38.340 Y111.750 E13.03445
G1 X38.240 Y111.460 E13.04794
G1 X38.010 Y110.590 E13.08750
G1 X37.890 Y109.700 E13.12697
G1 X37.870 Y50.590 E15.72543
G1 X37.960 Y49.690 E15.76519
G1 X38.010 Y49.400 E15.77812
G1 X38.240 Y48.530 E15.81768
G1 X38.340 Y48.240 E15.83117
G1 X38.710 Y47.420 E15.87071
G1 X58.936 Y15.012 E17.55006
G1 X59.650 Y15.310 F18000.000
G1 X59.960 Y14.860 F2970.000 E17.57409
G1 X60.300 Y14.430 E17.59818
G1 X60.880 Y13.850 E17.63424
G1 X61.310 Y13.500 E17.65861
G1 X61.760 Y13.190 E17.68263
G1 X62.470 Y12.790 E17.71846
G1 X63.240 Y12.480 E17.75495
G1 X63.760 Y12.330 E17.77874
G1 X64.300 Y12.220 E17.80296
G1 X64.840 Y12.150 E17.82690
G1 X65.390 Y12.130 E17.85109
G1 X75.130 Y12.140 E18.27926
G1 X75.730 Y12.190 E18.30573
G1 X76.320 Y12.300 E18.33211
G1 X76.890 Y12.450 E18.35802
G1 X77.460 Y12.660 E18.38473
G1 X77.730 Y12.780 E18.39771
G1 X108.270 Y30.710 E19.95451
G1 X108.760 Y31.060 E19.98099
G1 X109.420 Y31.650 E20.01990
G1 X109.630 Y31.870 E20.03327
G1 X110.010 Y32.330 E20.05950
G1 X130.490 Y65.340 E21.76720
G1 X130.630 Y65.600 E21.78018
G1 X130.970 Y66.390 E21.81799
G1 X131.140 Y66.950 E21.84371
G1 X131.260 Y67.510 E21.86889
G1 X131.330 Y68.080 E21.89414
G1 X131.350 Y91.620 E22.92895
G1 X131.260 Y92.480 E22.96696
G1 X131.140 Y93.040 E22.99213
G1 X130.970 Y93.600 E23.01786
G1 X130.630 Y94.390 E23.05567
G1 X110.180 Y127.410 E24.76305
G1 X110.010 Y127.650 E24.77597
G1 X109.630 Y128.110 E24.80220
G1 X108.990 Y128.730 E24.84137
G1 X108.520 Y129.100 E24.86767
G1 X108.270 Y129.270 E24.88096
G1 X78.000 Y147.070 E26.42463
G1 X77.460 Y147.330 E26.45098
G1 X76.900 Y147.540 E26.47727
G1 X76.320 Y147.690 E26.50361
G1 X75.730 Y147.800 E26.52999
G1 X74.830 Y147.860 E26.56964
G1 X64.840 Y147.840 E27.00880
G1 X64.300 Y147.770 E27.03273
G1 X63.760 Y147.660 E27.05696
G1 X63.240 Y147.510 E27.08075
G1 X62.470 Y147.200 E27.11724
G1 X61.760 Y146.800 E27.15306
G1 X61.310 Y146.490 E27.17708
G1 X60.880 Y146.140 E27.20146
G1 X60.300 Y145.560 E27.23752
G1 X59.800 Y144.910 E27.27356
G1 X39.510 Y112.440 E28.95670
G1 X39.370 Y112.180 E28.96968
G1 X39.130 Y111.650 E28.99525
G1 X38.860 Y110.830 E29.03321
G1 X38.730 Y110.260 E29.05891
G1 X38.640 Y109.390 E29.09735
G1 X38.640 Y50.600 E31.68174
G1 X38.730 Y49.730 E31.72019
G1 X38.860 Y49.160 E31.74589
G1 X39.030 Y48.610 E31.77120
G1 X39.130 Y48.340 E31.78385
G1 X39.370 Y47.810 E31.80943
G1 X59.586 Y15.412 E33.48817
G1 F2100.000 E32.08817
G1 Z0.900 F18000.000
G92 E0
G1 X111.579 Y89.015
G1 Z0.600
G1 F2100.000 E1.40000
G1 X114.187 Y87.120 F1980.000 E1.54170
G1 X114.455 Y87.256 E1.55490
G1 X114.455 Y87.479 E1.56468
G1 X116.307 Y87.479 E1.64608
G1 X118.418 Y89.013 E1.76084
G1 X118.418 Y89.013 E1.76084
G1 X119.069 Y89.486 E1.79619
G1 X118.695 Y89.860 E1.81943
G1 X118.881 Y90.431 E1.84584
G1 X118.881 Y90.431 E1.84584
G1 X119.228 Y91.500 E1.89524
G1 X118.881 Y92.569 E1.94463
G1 X118.881 Y92.569 E1.94463
G1 X118.421 Y93.985 E2.01011
G1 X116.307 Y95.521 E2.12497
G1 X113.693 Y95.521 E2.23984
G1 X111.579 Y93.985 E2.35471
G1 X110.772 Y91.500 E2.46957
G1 X111.542 Y89.129 E2.57916
G1 X112.233 Y89.489 F18000.000
G1 X113.687 Y88.433 F1980.000 E2.65819
G1 X113.687 Y88.433 E2.65819
G1 X113.943 Y88.247 E2.67210
G1 X116.057 Y88.247 E2.76503
G1 X117.766 Y89.489 E2.85791
G1 X117.766 Y89.489 E2.85791
G1 X117.890 Y89.579 E2.86465
G1 X117.819 Y89.650 E2.86906
G1 X118.323 Y91.199 E2.94068
G1 X118.323 Y91.199 E2.94068
G1 X118.421 Y91.500 E2.95458
G1 X118.323 Y91.801 E2.96848
G1 X118.323 Y91.801 E2.96848
G1 X117.767 Y93.511 E3.04751
G1 X116.057 Y94.753 E3.14045
G1 X113.943 Y94.753 E3.23338
G1 X112.233 Y93.511 E3.32632
G1 X111.579 Y91.500 E3.41925
G1 X112.196 Y89.604 E3.50690
G1 F2100.000 E2.10690
G1 Z0.900 F18000.000
G92 E0
G1 X99.228 Y91.500
G1 Z0.600
G1 F2100.000 E1.40000
G1 X98.881 Y92.569 F1980.000 E1.44939
G1 X98.881 Y92.569 E1.44939
G1 X98.421 Y93.985 E1.51487
G1 X96.307 Y95.521 E1.62973
G1 X93.693 Y95.521 E1.74460
G1 X91.579 Y93.985 E1.85947
G1 X90.772 Y91.500 E1.97434
G1 X91.579 Y89.015 E2.08920
G1 X94.187 Y87.120 E2.23091
G1 X94.455 Y87.256 E2.24410
G1 X94.455 Y87.479 E2.25389
G1 X96.307 Y87.479 E2.33529
G1 X98.421 Y89.015 E2.45015
G1 X99.191 Y91.386 E2.55974
G1 X98.421 Y91.500 F18000.000
G1 X98.323 Y91.801 F1980.000 E2.57365
G1 X98.323 Y91.801 E2.57365
G1 X97.767 Y93.511 E2.65267
G1 X96.057 Y94.753 E2.74561
G1 X93.943 Y94.753 E2.83854
G1 X92.233 Y93.511 E2.93148
G1 X91.579 Y91.500 E3.02441
G1 X92.233 Y89.489 E3.11734
G1 X93.687 Y88.433 E3.19637
G1 X93.687 Y88.433 E3.19637
G1 X93.943 Y88.247 E3.21027
G1 X96.057 Y88.247 E3.30321
G1 X97.767 Y89.489 E3.39614
G1 X98.384 Y91.386 E3.48380
G1 F2100.000 E2.08380
G1 Z0.900 F18000.000
G92 E0
G1 X79.228 Y91.500
G1 Z0.600
G1 F2100.000 E1.40000
G1 X78.421 Y93.985 F1980.000 E1.51487
G1 X76.307 Y95.521 E1.62973
G1 X73.694 Y95.521 E1.74460
G1 X71.580 Y93.985 E1.85947
G1 X70.772 Y91.500 E1.97433
G1 X71.580 Y89.015 E2.08920
G1 X73.694 Y87.479 E2.20407
G1 X76.307 Y87.479 E2.31893
G1 X78.421 Y89.015 E2.43380
G1 X79.191 Y91.386 E2.54339
G1 X78.421 Y91.500 F18000.000
G1 X77.767 Y93.511 F1980.000 E2.63632
G1 X76.057 Y94.753 E2.72926
G1 X73.943 Y94.753 E2.82219
G1 X72.233 Y93.511 E2.91512
G1 X71.579 Y91.500 E3.00806
G1 X72.233 Y89.489 E3.10099
G1 X73.943 Y88.247 E3.19392
G1 X76.057 Y88.247 E3.28686
G1 X77.767 Y89.489 E3.37979
G1 X78.384 Y91.386 E3.46744
G1 F2100.000 E2.06744
G1 Z0.900 F18000.000
G92 E0
G1 X77.481 Y108.332
G1 Z0.600
G1 F2100.000 E1.40000
G1 X78.420 Y109.015 F1980.000 E1.45106
G1 X79.053 Y110.962 E1.54106
G1 X79.053 Y110.962 E1.54106
G1 X79.228 Y111.500 E1.56593
G1 X78.421 Y113.985 E1.68080
G1 X76.307 Y115.521 E1.79567
G1 X73.694 Y115.521 E1.91053
G1 X71.580 Y113.985 E2.02540
G1 X70.772 Y111.500 E2.14027
G1 X71.580 Y109.015 E2.25514
G1 X72.519 Y108.332 E2.30620
G1 X77.361 Y108.332 E2.51902
G1 X77.231 Y109.100 F18000.000
G1 X77.767 Y109.489 F1980.000 E2.54814
G1 X78.421 Y111.500 E2.64108
G1 X77.767 Y113.511 E2.73401
G1 X76.057 Y114.753 E2.82695
G1 X73.943 Y114.753 E2.91988
G1 X72.233 Y113.511 E3.01281
G1 X71.579 Y111.500 E3.10575
G1 X72.233 Y109.489 E3.19868
G1 X72.769 Y109.100 E3.22781
G1 X77.111 Y109.100 E3.41870
G1 F2100.000 E2.01870
G1 Z0.900 F18000.000
G92 E0
G1 X76.307 Y127.479
G1 Z0.600
G1 F2100.000 E1.40000
G1 X78.421 Y129.015 F1980.000 E1.51487
G1 X78.881 Y130.431 E1.58034
G1 X78.881 Y130.431 E1.58034
G1 X79.228 Y131.500 E1.62973
G1 X78.421 Y133.985 E1.74460
G1 X76.307 Y135.521 E1.85947
G1 X73.694 Y135.521 E1.97433
G1 X71.580 Y133.985 E2.08920
G1 X70.772 Y131.500 E2.20407
G1 X71.580 Y129.015 E2.31894
G1 X73.694 Y127.479 E2.43380
G1 X76.187 Y127.479 E2.54339
G1 X76.057 Y128.247 F18000.000
G1 X77.767 Y129.489 F1980.000 E2.63633
G1 X78.323 Y131.199 E2.71536
G1 X78.323 Y131.199 E2.71536
G1 X78.421 Y131.500 E2.72926
G1 X77.767 Y133.511 E2.82219
G1 X76.057 Y134.753 E2.91512
G1 X73.943 Y134.753 E3.00806
G1 X72.233 Y133.511 E3.10099
G1 X71.579 Y131.500 E3.19393
G1 X72.135 Y129.790 E3.27295
G1 X72.135 Y129.790 E3.27295
G1 X72.233 Y129.489 E3.28686
G1 X73.943 Y128.247 E3.37979
G1 X75.937 Y128.247 E3.46745
G1 F2100.000 E2.06745
G1 Z0.900 F18000.000
G92 E0
G1 X46.168 Y108.332
G1 Z0.600
G1 F2100.000 E1.40000
G1 X46.168 Y100.168 F2970.000 E1.75890
G1 X66.168 Y100.168 E2.63809
G1 X66.168 Y82.668 E3.40739
G1 X123.832 Y82.668 E5.94229
G1 X123.832 Y91.016 E6.30929
G1 X103.832 Y111.016 E7.55265
G1 X103.832 Y122.832 E8.07207
G1 X92.016 Y122.832 E8.59150
G1 X74.516 Y140.332 E9.67944
G1 X66.168 Y140.332 E10.04644
G1 X66.168 Y108.332 E11.45314
G1 X46.288 Y108.332 E12.32706
G1 F2100.000 E10.92706
G1 Z0.900 F18000.000
G92 E0
G1 X45.400 Y109.100
G1 Z0.600
G1 F2100.000 E1.40000
G1 X45.400 Y99.400 F2970.000 E1.82641
G1 X65.400 Y99.400 E2.70560
G1 X65.400 Y81.900 E3.47489
G1 X124.600 Y81.900 E6.07730
G1 X124.600 Y91.334 E6.49203
G1 X104.600 Y111.334 E7.73539
G1 X104.600 Y123.600 E8.27459
G1 X92.334 Y123.600 E8.81378
G1 X74.834 Y141.100 E9.90173
G1 X65.400 Y141.100 E10.31646
G1 X65.400 Y109.100 E11.72316
G1 X45.520 Y109.100 E12.59708
G1 F2100.000 E11.19708
G1 Z0.900 F18000.000
G92 E0
G1 X73.694 Y32.521
G1 Z0.600
G1 F2100.000 E1.40000
G1 X71.580 Y30.985 F1980.000 E1.51487
G1 X70.772 Y28.500 E1.62973
G1 X71.580 Y26.015 E1.74460
G1 X73.694 Y24.479 E1.85947
G1 X76.307 Y24.479 E1.97434
G1 X78.421 Y26.015 E2.08920
G1 X78.881 Y27.431 E2.15467
G1 X78.881 Y27.431 E2.15467
G1 X79.228 Y28.500 E2.20407
G1 X78.881 Y29.569 E2.25346
G1 X78.881 Y29.569 E2.25346
G1 X78.421 Y30.985 E2.31893
G1 X76.307 Y32.521 E2.43380
G1 X73.814 Y32.521 E2.54339
G1 X73.943 Y31.753 F18000.000
G1 X73.852 Y31.687 F1980.000 E2.54834
G1 X73.852 Y31.687 E2.54834
G1 X72.233 Y30.511 E2.63633
G1 X72.135 Y30.210 E2.65023
G1 X72.135 Y30.210 E2.65023
G1 X71.579 Y28.500 E2.72926
G1 X72.233 Y26.489 E2.82219
G1 X73.943 Y25.247 E2.91513
G1 X76.057 Y25.247 E3.00806
G1 X77.767 Y26.489 E3.10099
G1 X78.323 Y28.199 E3.18002
G1 X78.323 Y28.199 E3.18002
G1 X78.421 Y28.500 E3.19393
G1 X78.323 Y28.801 E3.20783
G1 X78.323 Y28.801 E3.20783
G1 X77.767 Y30.511 E3.28686
G1 X76.057 Y31.753 E3.37979
G1 X74.063 Y31.753 E3.46745
G1 F2100.000 E2.06745
G1 Z0.900 F18000.000
G92 E0
G1 X73.694 Y44.479
G1 Z0.600
G1 F2100.000 E1.40000
G1 X76.307 Y44.479 F1980.000 E1.51487
G1 X78.421 Y46.015 E1.62973
G1 X78.881 Y47.431 E1.69521
G1 X78.881 Y47.431 E1.69521
G1 X79.228 Y48.500 E1.74460
G1 X78.881 Y49.569 E1.79399
G1 X78.881 Y49.569 E1.79399
G1 X78.420 Y50.985 E1.85947
G1 X77.481 Y51.668 E1.91054
G1 X72.519 Y51.668 E2.12864
G1 X71.580 Y50.985 E2.17969
G1 X70.772 Y48.500 E2.29456
G1 X71.580 Y46.015 E2.40943
G1 X73.596 Y44.550 E2.51902
G1 X73.943 Y45.247 F18000.000
G1 X76.057 Y45.247 F1980.000 E2.61195
G1 X77.767 Y46.489 E2.70489
G1 X78.323 Y48.199 E2.78392
G1 X78.323 Y48.199 E2.78392
G1 X78.421 Y48.500 E2.79782
G1 X78.323 Y48.801 E2.81172
G1 X78.323 Y48.801 E2.81172
G1 X77.767 Y50.511 E2.89076
G1 X77.231 Y50.900 E2.91988
G1 X72.769 Y50.900 E3.11605
G1 X72.233 Y50.511 E3.14518
G1 X71.579 Y48.500 E3.23811
G1 X72.135 Y46.790 E3.31714
G1 X72.135 Y46.790 E3.31714
G1 X72.233 Y46.489 E3.33105
G1 X73.846 Y45.317 E3.41870
G1 F2100.000 E2.01870
G1 Z0.900 F18000.000
G92 E0
G1 X111.579 Y66.015
G1 Z0.600
G1 F2100.000 E1.40000
G1 X113.693 Y64.479 F1980.000 E1.51487
G1 X116.307 Y64.479 E1.62974
G1 X117.599 Y65.418 E1.69997
G1 X117.599 Y65.418 E1.69997
G1 X118.421 Y66.015 E1.74460
G1 X119.228 Y68.500 E1.85947
G1 X118.421 Y70.985 E1.97434
G1 X116.307 Y72.521 E2.08920
G1 X113.693 Y72.521 E2.20407
G1 X111.579 Y70.985 E2.31894
G1 X110.772 Y68.500 E2.43381
G1 X111.542 Y66.129 E2.54340
G1 X112.233 Y66.489 F18000.000
G1 X113.943 Y65.247 F1980.000 E2.63633
G1 X116.057 Y65.247 E2.72927
G1 X117.767 Y66.489 E2.82220
G1 X118.421 Y68.500 E2.91513
G1 X117.767 Y70.511 E3.00807
G1 X116.057 Y71.753 E3.10100
G1 X113.943 Y71.753 E3.19393
G1 X112.233 Y70.511 E3.28687
G1 X112.045 Y69.933 E3.31355
G1 X112.045 Y69.933 E3.31355
G1 X111.579 Y68.500 E3.37980
G1 X112.045 Y67.067 E3.44605
G1 X112.045 Y67.067 E3.44605
G1 X112.196 Y66.604 E3.46746
G1 F2100.000 E2.06746
G1 Z0.900 F18000.000
G92 E0
G1 X99.380 Y68.033
G1 Z0.600
G1 F2100.000 E1.40000
G1 X98.421 Y70.985 F1980.000 E1.53645
G1 X97.963 Y71.318 E1.56132
G1 X97.963 Y71.318 E1.56132
G1 X96.307 Y72.521 E1.65132
G1 X93.693 Y72.521 E1.76619
G1 X91.579 Y70.985 E1.88106
G1 X90.772 Y68.500 E1.99592
G1 X91.579 Y66.015 E2.11079
G1 X93.693 Y64.479 E2.22565
G1 X96.307 Y64.479 E2.34052
G1 X98.279 Y65.912 E2.44772
G1 X98.279 Y65.912 E2.44772
G1 X98.421 Y66.015 E2.45539
G1 X99.076 Y68.033 E2.54867
G1 X99.260 Y68.033 E2.55674
G1 X98.323 Y68.199 F18000.000
G1 X98.421 Y68.500 F1980.000 E2.57064
G1 X98.323 Y68.801 E2.58454
G1 X98.323 Y68.801 E2.58454
G1 X97.767 Y70.511 E2.66357
G1 X96.057 Y71.753 E2.75651
G1 X93.943 Y71.753 E2.84944
G1 X92.233 Y70.511 E2.94237
G1 X91.579 Y68.500 E3.03531
G1 X92.233 Y66.489 E3.12824
G1 X93.943 Y65.247 E3.22117
G1 X96.057 Y65.247 E3.31411
G1 X97.511 Y66.303 E3.39314
G1 X97.511 Y66.303 E3.39314
G1 X97.767 Y66.489 E3.40704
G1 X98.286 Y68.085 E3.48080
G1 F2100.000 E2.08080
G1 Z0.900 F18000.000
G92 E0
G1 X79.228 Y68.500
G1 Z0.600
G1 F2100.000 E1.40000
G1 X78.881 Y69.569 F1980.000 E1.44939
G1 X78.881 Y69.569 E1.44939
G1 X78.421 Y70.985 E1.51487
G1 X76.307 Y72.521 E1.62973
G1 X73.694 Y72.521 E1.74460
G1 X71.580 Y70.985 E1.85947
G1 X70.772 Y68.500 E1.97433
G1 X71.580 Y66.015 E2.08920
G1 X73.694 Y64.479 E2.20407
G1 X76.307 Y64.479 E2.31894
G1 X78.421 Y66.015 E2.43380
G1 X79.191 Y68.386 E2.54339
G1 X78.421 Y68.500 F18000.000
G1 X78.323 Y68.801 F1980.000 E2.55730
G1 X78.323 Y68.801 E2.55730
G1 X77.767 Y70.511 E2.63633
G1 X76.057 Y71.753 E2.72926
G1 X73.943 Y71.753 E2.82219
G1 X73.852 Y71.687 E2.82714
G1 X73.852 Y71.687 E2.82714
G1 X72.233 Y70.511 E2.91513
G1 X71.579 Y68.500 E3.00806
G1 X72.233 Y66.489 E3.10099
G1 X73.943 Y65.247 E3.19393
G1 X76.057 Y65.247 E3.28686
G1 X77.767 Y66.489 E3.37979
G1 X78.384 Y68.386 E3.46745
G1 F2100.000 E2.06745
G1 Z0.900 F18000.000
G92 E0
G1 X46.168 Y59.832
G1 Z0.600
G1 F2100.000 E1.40000
G1 X46.168 Y51.668 F2970.000 E1.75890
G1 X66.168 Y51.668 E2.63809
G1 X66.168 Y19.668 E4.04480
G1 X74.516 Y19.668 E4.41180
G1 X92.016 Y37.168 E5.49974
G1 X103.832 Y37.168 E6.01916
G1 X103.832 Y48.984 E6.53859
G1 X123.832 Y68.984 E7.78195
G1 X123.832 Y77.332 E8.14895
G1 X66.168 Y77.332 E10.68385
G1 X66.168 Y59.832 E11.45314
G1 X46.288 Y59.832 E12.32706
G1 F2100.000 E10.92706
G1 Z0.900 F18000.000
G92 E0
G1 X45.400 Y60.600
G1 Z0.600
G1 F2100.000 E1.40000
G1 X45.400 Y50.900 F2970.000 E1.82641
G1 X65.400 Y50.900 E2.70560
G1 X65.400 Y18.900 E4.11231
G1 X74.834 Y18.900 E4.52704
G1 X92.334 Y36.400 E5.61498
G1 X104.600 Y36.400 E6.15417
G1 X104.600 Y48.666 E6.69337
G1 X124.600 Y68.666 E7.93673
G1 X124.600 Y78.100 E8.35146
G1 X65.400 Y78.100 E10.95387
G1 X65.400 Y60.600 E11.72316
G1 X45.520 Y60.600 E12.59708
G1 F2100.000 E11.19708
G1 Z0.900 F18000.000
G92 E0
G1 X66.752 Y89.375
G1 Z0.600
G1 F2100.000 E1.40000
