; generated by Slic3r 0.8.5-dev on 2012-09-07 at 17:41:49

; layer_height = 0.4
; perimeters = 2
; solid_layers = 3
; fill_density = 0.25
; perimeter_speed = 90
; infill_speed = 190
; travel_speed = 300
; scale = 1
; nozzle_diameter = 0.5
; filament_diameter = 2.89
; extrusion_multiplier = 1.00
; single wall width = 0.53mm
; first layer single wall width = 0.80mm

G28 ; home all axes
G90 ; use absolute coordinates
G21 ; set units to millimeters
G92 E0
M82 ; use absolute distances for extrusion
G1 Z0.600 F18000.000
G1 X43.880 Y39.270
G1 F2100.000 E1.40000
G1 X44.480 Y38.690 F2970.000 E1.43743
G1 X45.160 Y38.170 E1.47583
G1 X45.630 Y37.870 E1.50084
G1 X46.390 Y37.490 E1.53896
G1 X47.180 Y37.200 E1.57671
G1 X47.720 Y37.050 E1.60185
G1 X48.560 Y36.910 E1.64005
G1 X49.400 Y36.860 E1.67779
G1 X108.890 Y36.870 E4.34632
G1 X109.480 Y36.920 E4.37288
G1 X110.350 Y37.070 E4.41248
G1 X110.920 Y37.230 E4.43904
G1 X111.470 Y37.440 E4.46545
G1 X112.010 Y37.690 E4.49214
G1 X112.530 Y37.970 E4.51863
G1 X113.260 Y38.480 E4.55858
G1 X113.920 Y39.070 E4.59829
G1 X126.120 Y51.280 E5.37254
G1 X126.510 Y51.730 E5.39925
G1 X126.860 Y52.210 E5.42589
G1 X127.020 Y52.460 E5.43921
G1 X127.430 Y53.250 E5.47913
G1 X127.660 Y53.790 E5.50546
G1 X127.760 Y54.070 E5.51880
G1 X127.920 Y54.640 E5.54535
G1 X128.070 Y55.510 E5.58496
G1 X128.130 Y56.400 E5.62497
G1 X128.120 Y115.870 E8.29260
G1 X128.080 Y116.430 E8.31778
G1 X127.940 Y117.270 E8.35598
G1 X127.700 Y118.080 E8.39388
G1 X127.500 Y118.600 E8.41887
G1 X127.120 Y119.360 E8.45698
G1 X126.820 Y119.830 E8.48200
G1 X126.300 Y120.510 E8.52039
G1 X125.920 Y120.920 E8.54547
G1 X125.510 Y121.300 E8.57055
G1 X124.830 Y121.820 E8.60894
G1 X124.360 Y122.120 E8.63396
G1 X123.600 Y122.500 E8.67207
G1 X122.810 Y122.790 E8.70982
G1 X122.270 Y122.940 E8.73496
G1 X121.430 Y123.080 E8.77316
G1 X120.590 Y123.130 E8.81091
G1 X61.100 Y123.120 E11.47943
G1 X60.510 Y123.070 E11.50599
G1 X59.640 Y122.920 E11.54559
G1 X59.070 Y122.760 E11.57215
G1 X58.520 Y122.550 E11.59856
G1 X57.980 Y122.300 E11.62525
G1 X57.460 Y122.020 E11.65174
G1 X56.730 Y121.510 E11.69169
G1 X56.070 Y120.920 E11.73140
G1 X43.870 Y108.710 E12.50565
G1 X43.480 Y108.260 E12.53236
G1 X43.130 Y107.780 E12.55901
G1 X42.970 Y107.530 E12.57232
G1 X42.560 Y106.740 E12.61225
G1 X42.330 Y106.200 E12.63857
G1 X42.230 Y105.920 E12.65191
G1 X42.070 Y105.350 E12.67847
G1 X41.920 Y104.480 E12.71807
G1 X41.860 Y103.590 E12.75808
G1 X41.870 Y44.120 E15.42571
G1 X41.910 Y43.560 E15.45090
G1 X42.050 Y42.720 E15.48909
G1 X42.290 Y41.910 E15.52699
G1 X42.490 Y41.390 E15.55198
G1 X42.870 Y40.630 E15.59010
G1 X43.170 Y40.160 E15.61511
G1 X43.690 Y39.480 E15.65351
G1 X43.799 Y39.359 E15.66083
G1 X44.330 Y39.910 F18000.000
G1 X44.910 Y39.330 F2970.000 E15.69762
G1 X45.330 Y38.990 E15.72186
G1 X45.780 Y38.680 E15.74637
G1 X46.250 Y38.410 E15.77069
G1 X46.750 Y38.170 E15.79556
G1 X47.260 Y37.980 E15.81998
G1 X47.780 Y37.830 E15.84425
G1 X48.310 Y37.720 E15.86853
G1 X48.860 Y37.650 E15.89340
G1 X49.400 Y37.630 E15.91764
G1 X108.870 Y37.640 E18.58527
G1 X109.430 Y37.680 E18.61046
G1 X109.700 Y37.720 E18.62270
G1 X110.520 Y37.910 E18.66046
G1 X111.310 Y38.200 E18.69821
G1 X111.810 Y38.450 E18.72328
G1 X112.290 Y38.730 E18.74821
G1 X112.750 Y39.060 E18.77360
G1 X113.380 Y39.610 E18.81112
G1 X125.570 Y51.820 E19.58505
G1 X125.930 Y52.240 E19.60986
G1 X126.260 Y52.700 E19.63526
G1 X126.670 Y53.430 E19.67281
G1 X126.790 Y53.680 E19.68525
G1 X127.080 Y54.470 E19.72300
G1 X127.270 Y55.290 E19.76076
G1 X127.310 Y55.560 E19.77300
G1 X127.360 Y56.400 E19.81075
G1 X127.340 Y116.130 E22.49004
G1 X127.270 Y116.680 E22.51491
G1 X127.160 Y117.210 E22.53919
G1 X127.010 Y117.730 E22.56347
G1 X126.820 Y118.240 E22.58788
G1 X126.580 Y118.740 E22.61276
G1 X126.310 Y119.210 E22.63707
G1 X126.000 Y119.660 E22.66159
G1 X125.660 Y120.080 E22.68583
G1 X125.080 Y120.660 E22.72262
G1 X124.660 Y121.000 E22.74686
G1 X124.210 Y121.310 E22.77137
G1 X123.740 Y121.580 E22.79568
G1 X123.240 Y121.820 E22.82056
G1 X122.730 Y122.010 E22.84497
G1 X122.210 Y122.160 E22.86925
G1 X121.680 Y122.270 E22.89353
G1 X121.130 Y122.340 E22.91840
G1 X120.590 Y122.360 E22.94264
G1 X61.120 Y122.350 E25.61027
G1 X60.560 Y122.310 E25.63545
G1 X60.290 Y122.270 E25.64770
G1 X59.470 Y122.080 E25.68546
G1 X58.680 Y121.790 E25.72320
G1 X58.180 Y121.540 E25.74828
G1 X57.700 Y121.260 E25.77321
G1 X57.240 Y120.930 E25.79860
G1 X56.610 Y120.380 E25.83612
G1 X44.420 Y108.170 E26.61005
G1 X44.060 Y107.750 E26.63486
G1 X43.730 Y107.290 E26.66026
G1 X43.320 Y106.560 E26.69781
G1 X43.200 Y106.310 E26.71025
G1 X42.910 Y105.520 E26.74800
G1 X42.720 Y104.700 E26.78576
G1 X42.680 Y104.430 E26.79800
G1 X42.630 Y103.590 E26.83575
G1 X42.650 Y43.860 E29.51504
G1 X42.720 Y43.310 E29.53991
G1 X42.830 Y42.780 E29.56419
G1 X42.980 Y42.260 E29.58847
G1 X43.170 Y41.750 E29.61288
G1 X43.410 Y41.250 E29.63776
G1 X43.680 Y40.780 E29.66207
G1 X43.990 Y40.330 E29.68658
G1 X44.254 Y40.003 E29.70544
G1 F2100.000 E28.30544
G1 Z0.900 F18000.000
G92 E0
G1 X106.979 Y64.693
G1 Z0.600
G1 F2100.000 E1.40000
G1 X108.515 Y62.579 F1980.000 E1.51721
G1 X110.020 Y62.090 E1.58822
G1 X110.020 Y62.090 E1.58822
G1 X111.000 Y61.772 E1.63442
G1 X113.485 Y62.579 E1.75163
G1 X115.021 Y64.693 E1.86884
G1 X115.021 Y67.307 E1.98606
G1 X113.485 Y69.421 E2.10327
G1 X111.000 Y70.228 E2.22048
G1 X110.020 Y69.910 E2.26668
G1 X110.020 Y69.910 E2.26668
G1 X108.515 Y69.421 E2.33769
G1 X106.979 Y67.307 E2.45490
G1 X106.979 Y64.813 E2.56673
G1 X107.747 Y64.943 F18000.000
G1 X108.989 Y63.233 F1980.000 E2.66156
G1 X110.788 Y62.648 E2.74640
G1 X110.788 Y62.648 E2.74640
G1 X111.000 Y62.579 E2.75639
G1 X113.011 Y63.233 E2.85122
G1 X114.253 Y64.943 E2.94605
G1 X114.253 Y67.057 E3.04088
G1 X113.011 Y68.767 E3.13571
G1 X111.000 Y69.421 E3.23054
G1 X110.788 Y69.352 E3.24053
G1 X110.788 Y69.352 E3.24053
G1 X108.989 Y68.767 E3.32537
G1 X107.747 Y67.057 E3.42020
G1 X107.747 Y65.063 E3.50965
G1 F2100.000 E2.10965
G1 Z0.900 F18000.000
G92 E0
G1 X111.000 Y81.772
G1 Z0.600
G1 F2100.000 E1.40000
G1 X113.485 Y82.579 F1980.000 E1.51721
G1 X115.021 Y84.693 E1.63442
G1 X115.021 Y87.307 E1.75163
G1 X113.485 Y89.421 E1.86885
G1 X111.000 Y90.228 E1.98606
G1 X110.020 Y89.910 E2.03226
G1 X110.020 Y89.910 E2.03226
G1 X108.515 Y89.421 E2.10327
G1 X106.979 Y87.307 E2.22048
G1 X106.979 Y84.693 E2.33769
G1 X108.515 Y82.579 E2.45490
G1 X110.020 Y82.090 E2.52591
G1 X110.020 Y82.090 E2.52591
G1 X110.886 Y81.809 E2.56673
G1 X111.000 Y82.579 F18000.000
G1 X113.011 Y83.233 F1980.000 E2.66156
G1 X114.253 Y84.943 E2.75639
G1 X114.253 Y87.057 E2.85122
G1 X113.011 Y88.767 E2.94605
G1 X111.000 Y89.421 E3.04088
G1 X110.788 Y89.352 E3.05087
G1 X110.788 Y89.352 E3.05087
G1 X108.989 Y88.767 E3.13571
G1 X107.747 Y87.057 E3.23054
G1 X107.747 Y84.943 E3.32537
G1 X108.989 Y83.233 E3.42020
G1 X110.788 Y82.648 E3.50505
G1 X110.788 Y82.648 E3.50505
G1 X110.886 Y82.616 E3.50965
G1 F2100.000 E2.10965
G1 Z0.900 F18000.000
G92 E0
G1 X111.000 Y101.772
G1 Z0.600
G1 F2100.000 E1.40000
G1 X113.485 Y102.579 F1980.000 E1.51721
G1 X115.021 Y104.693 E1.63442
G1 X115.021 Y107.307 E1.75163
G1 X113.485 Y109.421 E1.86885
G1 X111.000 Y110.228 E1.98606
G1 X110.020 Y109.910 E2.03226
G1 X110.020 Y109.910 E2.03226
G1 X108.515 Y109.421 E2.10327
G1 X106.979 Y107.307 E2.22048
G1 X106.979 Y104.693 E2.33769
G1 X108.515 Y102.579 E2.45490
G1 X110.020 Y102.090 E2.52591
G1 X110.020 Y102.090 E2.52591
G1 X110.886 Y101.809 E2.56673
G1 X111.000 Y102.579 F18000.000
G1 X113.011 Y103.233 F1980.000 E2.66156
G1 X114.253 Y104.943 E2.75639
G1 X114.253 Y107.057 E2.85122
G1 X113.011 Y108.767 E2.94605
G1 X111.000 Y109.421 E3.04088
G1 X110.788 Y109.352 E3.05087
G1 X110.788 Y109.352 E3.05087
G1 X108.989 Y108.767 E3.13571
G1 X107.747 Y107.057 E3.23054
G1 X107.747 Y104.943 E3.32537
G1 X108.989 Y103.233 E3.42020
G1 X110.788 Y102.648 E3.50505
G1 X110.788 Y102.648 E3.50505
G1 X110.886 Y102.616 E3.50965
G1 F2100.000 E2.10965
G1 Z0.900 F18000.000
G92 E0
G1 X95.021 Y104.693
G1 Z0.600
G1 F2100.000 E1.40000
G1 X95.021 Y107.307 F1980.000 E1.51721
G1 X93.485 Y109.421 E1.63442
G1 X91.000 Y110.228 E1.75163
G1 X90.020 Y109.910 E1.79784
G1 X90.020 Y109.910 E1.79784
G1 X88.515 Y109.421 E1.86885
G1 X86.979 Y107.307 E1.98606
G1 X86.979 Y104.693 E2.10327
G1 X88.515 Y102.579 E2.22048
G1 X90.020 Y102.090 E2.29149
G1 X90.020 Y102.090 E2.29149
G1 X91.000 Y101.772 E2.33769
G1 X93.485 Y102.579 E2.45490
G1 X94.950 Y104.596 E2.56673
G1 X94.253 Y104.943 F18000.000
G1 X94.253 Y107.057 F1980.000 E2.66157
G1 X93.011 Y108.767 E2.75639
G1 X91.000 Y109.421 E2.85122
G1 X90.788 Y109.352 E2.86121
G1 X90.788 Y109.352 E2.86121
G1 X88.989 Y108.767 E2.94605
G1 X87.747 Y107.057 E3.04088
G1 X87.747 Y104.943 E3.13572
G1 X88.989 Y103.233 E3.23054
G1 X90.788 Y102.648 E3.31539
G1 X90.788 Y102.648 E3.31539
G1 X91.000 Y102.579 E3.32537
G1 X93.011 Y103.233 E3.42020
G1 X94.183 Y104.846 E3.50965
G1 F2100.000 E2.10965
G1 Z0.900 F18000.000
G92 E0
G1 X75.021 Y104.693
G1 Z0.600
G1 F2100.000 E1.40000
G1 X75.021 Y107.307 F1980.000 E1.51721
G1 X73.843 Y108.928 E1.60711
G1 X73.843 Y109.304 E1.62399
G1 X73.472 Y109.425 E1.64152
G1 X73.471 Y109.425 E1.64152
G1 X71.000 Y110.228 E1.75808
G1 X68.515 Y109.421 E1.87529
G1 X66.979 Y107.307 E1.99251
G1 X66.979 Y104.693 E2.10972
G1 X68.515 Y102.579 E2.22693
G1 X71.000 Y101.772 E2.34414
G1 X73.471 Y102.575 E2.46071
G1 X73.472 Y102.575 E2.46071
G1 X73.843 Y102.696 E2.47823
G1 X73.843 Y103.072 E2.49511
G1 X74.950 Y104.596 E2.57963
G1 X74.253 Y104.943 F18000.000
G1 X74.253 Y107.057 F1980.000 E2.67446
G1 X73.075 Y108.678 E2.76436
G1 X73.075 Y108.746 E2.76741
G1 X73.009 Y108.768 E2.77053
G1 X73.009 Y108.768 E2.77053
G1 X71.000 Y109.421 E2.86528
G1 X68.989 Y108.767 E2.96011
G1 X67.747 Y107.057 E3.05494
G1 X67.747 Y104.943 E3.14978
G1 X68.989 Y103.233 E3.24460
G1 X71.000 Y102.579 E3.33943
G1 X73.009 Y103.232 E3.43418
G1 X73.009 Y103.232 E3.43418
G1 X73.075 Y103.254 E3.43731
G1 X73.075 Y103.322 E3.44036
G1 X74.183 Y104.846 E3.52487
G1 F2100.000 E2.12487
G1 Z0.900 F18000.000
G92 E0
G1 X62.168 Y114.832
G1 Z0.600
G1 F2100.000 E1.40000
G1 X62.168 Y106.484 F2970.000 E1.77449
G1 X111.484 Y57.168 E4.90294
G1 X119.832 Y57.168 E5.27742
G1 X119.832 Y114.832 E7.86406
G1 X62.288 Y114.832 E10.44531
G1 F2100.000 E9.04531
G1 Z0.900 F18000.000
G92 E0
G1 X61.400 Y115.600
G1 Z0.600
G1 F2100.000 E1.40000
G1 X61.400 Y106.166 F2970.000 E1.82319
G1 X111.166 Y56.400 E4.98018
G1 X120.600 Y56.400 E5.40337
G1 X120.600 Y115.600 E8.05889
G1 X61.520 Y115.600 E10.70902
G1 F2100.000 E9.30902
G1 Z0.900 F18000.000
G92 E0
G1 X95.696 Y56.843
G1 Z0.600
G1 F2100.000 E1.40000
G1 X95.576 Y56.474 F1980.000 E1.41742
G1 X95.576 Y56.474 E1.41742
G1 X94.772 Y54.000 E1.53409
G1 X95.306 Y52.355 E1.61166
G1 X95.306 Y52.355 E1.61166
G1 X95.579 Y51.515 E1.65130
G1 X97.693 Y49.979 E1.76851
G1 X100.307 Y49.979 E1.88573
G1 X102.421 Y51.515 E2.00294
G1 X102.910 Y53.020 E2.07394
G1 X102.910 Y53.020 E2.07394
G1 X103.047 Y53.444 E2.09392
G1 X103.409 Y53.444 E2.11013
G1 X102.421 Y56.485 E2.25356
G1 X100.307 Y58.021 E2.37077
G1 X97.693 Y58.021 E2.48799
G1 X96.072 Y56.843 E2.57789
G1 X95.816 Y56.843 E2.58938
G1 X96.254 Y56.075 F18000.000
G1 X96.232 Y56.009 F1980.000 E2.59251
G1 X96.232 Y56.009 E2.59251
G1 X95.579 Y54.000 E2.68726
G1 X96.233 Y51.989 E2.78209
G1 X97.943 Y50.747 E2.87692
G1 X100.057 Y50.747 E2.97175
G1 X101.767 Y51.989 E3.06658
G1 X102.352 Y53.788 E3.15142
G1 X102.352 Y53.788 E3.15142
G1 X102.421 Y54.000 E3.16141
G1 X102.352 Y54.212 E3.17140
G1 X102.352 Y54.212 E3.17140
G1 X101.767 Y56.011 E3.25624
G1 X100.057 Y57.253 E3.35107
G1 X97.943 Y57.253 E3.44590
G1 X96.364 Y56.106 E3.53346
G1 F2100.000 E2.13346
G1 Z0.900 F18000.000
G92 E0
G1 X83.409 Y53.444
G1 Z0.600
G1 F2100.000 E1.40000
G1 X82.421 Y56.485 F1980.000 E1.54344
G1 X80.307 Y58.021 E1.66065
G1 X77.693 Y58.021 E1.77786
G1 X76.072 Y56.843 E1.86776
G1 X75.696 Y56.843 E1.88464
G1 X75.576 Y56.474 E1.90206
G1 X75.576 Y56.474 E1.90206
G1 X74.772 Y54.000 E2.01873
G1 X75.306 Y52.355 E2.09630
G1 X75.306 Y52.355 E2.09630
G1 X75.579 Y51.515 E2.13594
G1 X77.693 Y49.979 E2.25315
G1 X80.307 Y49.979 E2.37037
G1 X82.421 Y51.515 E2.48758
G1 X82.910 Y53.020 E2.55858
G1 X82.910 Y53.020 E2.55858
G1 X83.047 Y53.444 E2.57856
G1 X83.289 Y53.444 E2.58938
G1 X82.352 Y53.788 F18000.000
G1 X82.421 Y54.000 F1980.000 E2.59937
G1 X82.352 Y54.212 E2.60936
G1 X82.352 Y54.212 E2.60936
G1 X81.767 Y56.011 E2.69420
G1 X80.057 Y57.253 E2.78903
G1 X77.943 Y57.253 E2.88386
G1 X76.322 Y56.075 E2.97376
G1 X76.254 Y56.075 E2.97681
G1 X76.232 Y56.009 E2.97994
G1 X76.232 Y56.009 E2.97994
G1 X75.579 Y54.000 E3.07469
G1 X76.233 Y51.989 E3.16951
G1 X77.943 Y50.747 E3.26434
G1 X80.057 Y50.747 E3.35918
G1 X81.767 Y51.989 E3.45401
G1 X82.315 Y53.674 E3.53346
G1 F2100.000 E2.13346
G1 Z0.900 F18000.000
G92 E0
G1 X63.228 Y54.000
G1 Z0.600
G1 F2100.000 E1.40000
G1 X62.421 Y56.485 F1980.000 E1.51721
G1 X60.307 Y58.021 E1.63442
G1 X57.694 Y58.021 E1.75163
G1 X55.580 Y56.485 E1.86884
G1 X54.772 Y54.000 E1.98606
G1 X55.580 Y51.515 E2.10327
G1 X57.694 Y49.979 E2.22048
G1 X60.307 Y49.979 E2.33769
G1 X62.421 Y51.515 E2.45490
G1 X63.191 Y53.886 E2.56673
G1 X62.421 Y54.000 F18000.000
G1 X61.767 Y56.011 F1980.000 E2.66156
G1 X60.057 Y57.253 E2.75638
G1 X57.943 Y57.253 E2.85122
G1 X56.233 Y56.011 E2.94604
G1 X55.579 Y54.000 E3.04087
G1 X56.233 Y51.989 E3.13570
G1 X57.943 Y50.747 E3.23053
G1 X60.057 Y50.747 E3.32536
G1 X61.767 Y51.989 E3.42019
G1 X62.384 Y53.886 E3.50964
G1 F2100.000 E2.10964
G1 Z0.900 F18000.000
G92 E0
G1 X60.307 Y69.979
G1 Z0.600
G1 F2100.000 E1.40000
G1 X62.421 Y71.515 F1980.000 E1.51721
G1 X63.228 Y74.000 E1.63442
G1 X62.421 Y76.485 E1.75163
G1 X60.307 Y78.021 E1.86884
G1 X57.694 Y78.021 E1.98605
G1 X55.580 Y76.485 E2.10326
G1 X54.772 Y74.000 E2.22048
G1 X55.580 Y71.515 E2.33769
G1 X57.694 Y69.979 E2.45490
G1 X60.187 Y69.979 E2.56673
G1 X60.057 Y70.747 F18000.000
G1 X61.767 Y71.989 F1980.000 E2.66156
G1 X62.421 Y74.000 E2.75639
G1 X61.767 Y76.011 E2.85122
G1 X60.057 Y77.253 E2.94605
G1 X57.943 Y77.253 E3.04088
G1 X56.233 Y76.011 E3.13570
G1 X55.579 Y74.000 E3.23054
G1 X56.233 Y71.989 E3.32537
G1 X57.943 Y70.747 E3.42019
G1 X59.937 Y70.747 E3.50964
G1 F2100.000 E2.10964
G1 Z0.900 F18000.000
G92 E0
G1 X60.307 Y89.979
G1 Z0.600
G1 F2100.000 E1.40000
G1 X62.421 Y91.515 F1980.000 E1.51721
G1 X63.228 Y94.000 E1.63442
G1 X62.910 Y94.980 E1.68062
G1 X62.910 Y94.980 E1.68062
G1 X62.421 Y96.485 E1.75163
G1 X60.307 Y98.021 E1.86884
G1 X57.694 Y98.021 E1.98605
G1 X55.580 Y96.485 E2.10326
G1 X54.772 Y94.000 E2.22048
G1 X55.580 Y91.515 E2.33769
G1 X57.694 Y89.979 E2.45490
G1 X60.187 Y89.979 E2.56673
G1 X60.057 Y90.747 F18000.000
G1 X61.767 Y91.989 F1980.000 E2.66156
G1 X62.421 Y94.000 E2.75639
G1 X62.352 Y94.212 E2.76637
G1 X62.352 Y94.212 E2.76637
G1 X61.767 Y96.011 E2.85122
G1 X60.057 Y97.253 E2.94605
G1 X57.943 Y97.253 E3.04088
G1 X56.233 Y96.011 E3.13570
G1 X55.579 Y94.000 E3.23054
G1 X56.233 Y91.989 E3.32537
G1 X57.943 Y90.747 E3.42019
G1 X59.937 Y90.747 E3.50964
G1 F2100.000 E2.10964
G1 Z0.900 F18000.000
G92 E0
G1 X50.168 Y102.832
G1 Z0.600
G1 F2100.000 E1.40000
G1 X50.168 Y45.168 F2970.000 E3.98664
G1 X107.832 Y45.168 E6.57327
G1 X107.832 Y53.516 E6.94776
G1 X58.516 Y102.832 E10.07621
G1 X50.288 Y102.832 E10.44531
G1 F2100.000 E9.04531
G1 Z0.900 F18000.000
G92 E0
G1 X49.400 Y103.600
G1 Z0.600
G1 F2100.000 E1.40000
G1 X49.400 Y44.400 F2970.000 E4.05552
G1 X108.600 Y44.400 E6.71104
G1 X108.600 Y53.834 E7.13423
G1 X58.834 Y103.600 E10.29122
G1 X49.520 Y103.600 E10.70902
G1 F2100.000 E9.30902
G1 Z0.900 F18000.000
G92 E0
G1 X63.095 Y106.196
G1 Z0.600
G1 F2100.000 E1.40000
G1 X68.789 Y114.326 F2970.000 E1.84854
G1 X67.844 Y114.326 E1.89123
G1 X62.752 Y107.055 E2.29237
G1 X62.752 Y108.404 E2.35333
G1 X66.899 Y114.326 E2.68004
G1 X65.954 Y114.327 E2.72275
G1 X62.752 Y109.754 E2.97499
G1 X62.752 Y111.103 E3.03595
G1 X65.009 Y114.327 E3.21377
G1 X64.064 Y114.327 E3.25647
G1 X62.752 Y112.453 E3.35981
G1 X62.752 Y113.802 E3.42077
G1 X63.119 Y114.326 E3.44969
G1 F2100.000 E2.04969
G1 Z0.900 F18000.000
G92 E0
G1 X71.623 Y114.327
G1 Z0.600
