; generated by Slic3r 0.8.5-dev on 2012-09-17 at 16:32:35

; layer_height = 0.3
; perimeters = 2
; solid_layers = 3
; fill_density = 0.45
; perimeter_speed = 90
; infill_speed = 190
; travel_speed = 200
; scale = 1
; nozzle_diameter = 0.5
; filament_diameter = 2.89
; extrusion_multiplier = 0.98
; single wall width = 0.70mm
; first layer single wall width = 0.80mm

G28 ; home all axes
G90 ; use absolute coordinates
G21 ; set units to millimeters
G92 E0
M82 ; use absolute distances for extrusion
G1 Z0.500 F12000.000
G1 X27.210 Y31.440
G1 F2100.000 E1.00000
G1 X27.620 Y31.000 F2970.000 E1.01983
G1 X28.310 Y30.400 E1.04998
G1 X28.810 Y30.050 E1.07010
G1 X59.110 Y12.250 E2.22870
G1 X59.670 Y11.980 E2.24920
G1 X60.240 Y11.760 E2.26935
G1 X61.130 Y11.520 E2.29974
G1 X61.430 Y11.460 E2.30982
G1 X62.350 Y11.370 E2.34030
G1 X62.660 Y11.360 E2.35053
G1 X107.700 Y11.370 E3.83548
G1 X108.070 Y11.400 E3.84772
G1 X108.810 Y11.510 E3.87239
G1 X139.480 Y19.240 E4.91519
G1 X139.760 Y19.340 E4.92499
G1 X140.550 Y19.690 E4.95348
G1 X141.050 Y19.980 E4.97254
G1 X141.530 Y20.300 E4.99156
G1 X142.200 Y20.850 E5.02014
G1 X142.610 Y21.260 E5.03925
G1 X142.990 Y21.700 E5.05842
G1 X143.330 Y22.160 E5.07728
G1 X143.630 Y22.650 E5.09622
G1 X164.030 Y65.710 E6.66716
G1 X164.330 Y66.570 E6.69719
G1 X164.410 Y66.860 E6.70711
G1 X164.530 Y67.450 E6.72696
G1 X164.620 Y68.360 E6.75711
G1 X164.620 Y91.630 E7.52431
G1 X164.530 Y92.540 E7.55446
G1 X164.410 Y93.130 E7.57431
G1 X164.140 Y94.000 E7.60434
G1 X164.030 Y94.280 E7.61426
G1 X143.630 Y137.330 E9.18490
G1 X143.330 Y137.820 E9.20384
G1 X142.990 Y138.280 E9.22270
G1 X142.410 Y138.930 E9.25142
G1 X141.760 Y139.500 E9.27993
G1 X141.530 Y139.680 E9.28956
G1 X140.800 Y140.150 E9.31818
G1 X140.030 Y140.530 E9.34649
G1 X139.760 Y140.640 E9.35610
G1 X138.930 Y140.900 E9.38478
G1 X108.810 Y148.480 E10.40879
G1 X108.070 Y148.590 E10.43346
G1 X107.700 Y148.620 E10.44569
G1 X107.330 Y148.630 E10.45790
G1 X62.350 Y148.620 E11.94087
G1 X61.430 Y148.530 E11.97135
G1 X60.530 Y148.320 E12.00182
G1 X60.240 Y148.230 E12.01183
G1 X59.380 Y147.880 E12.04244
G1 X28.810 Y129.930 E13.21123
G1 X28.310 Y129.580 E13.23135
G1 X27.620 Y128.980 E13.26150
G1 X27.210 Y128.540 E13.28133
G1 X26.650 Y127.810 E13.31166
G1 X6.340 Y95.040 E14.58276
G1 X6.070 Y94.510 E14.60237
G1 X5.840 Y93.960 E14.62203
G1 X5.650 Y93.390 E14.64183
G1 X5.510 Y92.810 E14.66151
G1 X5.390 Y91.930 E14.69079
G1 X5.370 Y68.360 E15.46788
G1 X5.460 Y67.470 E15.49738
G1 X5.510 Y67.180 E15.50708
G1 X5.650 Y66.600 E15.52675
G1 X5.840 Y66.030 E15.54656
G1 X6.070 Y65.480 E15.56622
G1 X6.490 Y64.690 E15.59571
G1 X26.650 Y32.170 E16.85720
G1 X27.010 Y31.680 E16.87724
G1 X27.133 Y31.532 E16.88359
G1 X27.850 Y31.870 F12000.000
G1 X28.490 Y31.250 F2970.000 E16.91297
G1 X28.960 Y30.880 E16.93269
G1 X59.490 Y12.920 E18.10051
G1 X59.760 Y12.780 E18.11053
G1 X60.310 Y12.550 E18.13019
G1 X60.600 Y12.450 E18.14030
G1 X61.170 Y12.300 E18.15973
G1 X61.760 Y12.190 E18.17952
G1 X62.660 Y12.130 E18.20926
G1 X107.660 Y12.140 E19.69290
G1 X108.660 Y12.260 E19.72610
G1 X139.020 Y19.900 E20.75827
G1 X139.820 Y20.200 E20.78644
G1 X140.330 Y20.450 E20.80516
G1 X141.050 Y20.900 E20.83316
G1 X141.280 Y21.070 E20.84259
G1 X141.710 Y21.440 E20.86129
G1 X142.110 Y21.850 E20.88018
G1 X142.470 Y22.280 E20.89866
G1 X142.800 Y22.750 E20.91760
G1 X143.080 Y23.240 E20.93621
G1 X163.330 Y66.040 E22.49728
G1 X163.540 Y66.600 E22.51700
G1 X163.750 Y67.470 E22.54650
G1 X163.800 Y67.770 E22.55653
G1 X163.860 Y68.660 E22.58594
G1 X163.850 Y91.630 E23.34326
G1 X163.800 Y92.220 E23.36278
G1 X163.690 Y92.810 E23.38257
G1 X163.540 Y93.390 E23.40232
G1 X163.210 Y94.230 E23.43207
G1 X143.080 Y136.740 E24.98281
G1 X142.800 Y137.230 E25.00142
G1 X142.470 Y137.700 E25.02035
G1 X142.110 Y138.130 E25.03884
G1 X141.710 Y138.540 E25.05773
G1 X141.280 Y138.910 E25.07643
G1 X140.810 Y139.240 E25.09536
G1 X140.330 Y139.530 E25.11385
G1 X139.820 Y139.780 E25.13258
G1 X139.290 Y139.990 E25.15137
G1 X139.020 Y140.080 E25.16076
G1 X108.660 Y147.730 E26.19300
G1 X107.660 Y147.850 E26.22621
G1 X107.330 Y147.860 E26.23710
G1 X62.360 Y147.850 E27.71974
G1 X61.760 Y147.800 E27.73959
G1 X61.170 Y147.690 E27.75938
G1 X60.600 Y147.540 E27.77881
G1 X60.030 Y147.330 E27.79884
G1 X59.490 Y147.070 E27.81860
G1 X29.210 Y129.270 E28.97664
G1 X28.720 Y128.920 E28.99649
G1 X28.060 Y128.330 E29.02568
G1 X27.850 Y128.110 E29.03571
G1 X27.470 Y127.650 E29.05538
G1 X7.000 Y94.650 E30.33570
G1 X6.860 Y94.390 E30.34543
G1 X6.520 Y93.600 E30.37379
G1 X6.350 Y93.040 E30.39309
G1 X6.230 Y92.480 E30.41197
G1 X6.160 Y91.910 E30.43090
G1 X6.140 Y68.370 E31.20701
G1 X6.230 Y67.510 E31.23552
G1 X6.350 Y66.950 E31.25440
G1 X6.520 Y66.390 E31.27369
G1 X6.620 Y66.120 E31.28319
G1 X6.860 Y65.600 E31.30207
G1 X7.000 Y65.340 E31.31181
G1 X27.470 Y32.330 E32.59241
G1 X27.774 Y31.963 E32.60812
G1 F2100.000 E31.60812
G1 Z0.800 F12000.000
G92 E0
G1 X23.807 Y87.479
G1 Z0.500
G1 F2100.000 E1.00000
G1 X25.921 Y89.015 F1980.000 E1.08615
G1 X26.728 Y91.500 E1.17230
G1 X25.921 Y93.985 E1.25845
G1 X23.807 Y95.521 E1.34460
G1 X21.193 Y95.521 E1.43075
G1 X20.393 Y94.939 E1.46338
G1 X20.393 Y94.939 E1.46338
G1 X19.079 Y93.985 E1.51690
G1 X18.272 Y91.500 E1.60305
G1 X19.079 Y89.015 E1.68920
G1 X21.193 Y87.479 E1.77535
G1 X23.687 Y87.479 E1.85755
G1 X23.557 Y88.247 F12000.000
G1 X25.267 Y89.489 F1980.000 E1.92724
G1 X25.921 Y91.500 E1.99694
G1 X25.267 Y93.511 E2.06664
G1 X23.557 Y94.753 E2.13634
G1 X21.443 Y94.753 E2.20604
G1 X19.733 Y93.511 E2.27574
G1 X19.079 Y91.500 E2.34544
G1 X19.733 Y89.489 E2.41514
G1 X21.443 Y88.247 E2.48484
G1 X23.437 Y88.247 E2.55059
G1 F2100.000 E1.55059
G1 Z0.800 F12000.000
G92 E0
G1 X38.272 Y91.500
G1 Z0.500
G1 F2100.000 E1.00000
G1 X39.079 Y89.015 F1980.000 E1.08615
G1 X41.193 Y87.479 E1.17230
G1 X43.807 Y87.479 E1.25845
G1 X45.921 Y89.015 E1.34460
G1 X46.728 Y91.500 E1.43075
G1 X46.395 Y92.524 E1.46626
G1 X46.395 Y92.524 E1.46626
G1 X45.921 Y93.985 E1.51690
G1 X43.807 Y95.521 E1.60305
G1 X41.193 Y95.521 E1.68920
G1 X39.079 Y93.985 E1.77535
G1 X38.593 Y92.486 E1.82731
G1 X38.593 Y92.486 E1.82731
G1 X38.309 Y91.614 E1.85755
G1 X39.079 Y91.500 F12000.000
G1 X39.479 Y90.270 F1980.000 E1.90020
G1 X39.479 Y90.270 E1.90020
G1 X39.733 Y89.489 E1.92724
G1 X41.443 Y88.247 E1.99694
G1 X43.557 Y88.247 E2.06665
G1 X45.267 Y89.489 E2.13635
G1 X45.921 Y91.500 E2.20604
G1 X45.837 Y91.757 E2.21494
G1 X45.837 Y91.757 E2.21494
G1 X45.267 Y93.511 E2.27574
G1 X43.557 Y94.753 E2.34544
G1 X41.443 Y94.753 E2.41515
G1 X39.733 Y93.511 E2.48484
G1 X39.649 Y93.254 E2.49374
G1 X39.649 Y93.254 E2.49374
G1 X39.116 Y91.614 E2.55059
G1 F2100.000 E1.55059
G1 Z0.800 F12000.000
G92 E0
G1 X58.272 Y91.500
G1 Z0.500
G1 F2100.000 E1.00000
G1 X59.079 Y89.015 F1980.000 E1.08615
G1 X61.193 Y87.479 E1.17230
G1 X63.807 Y87.479 E1.25845
G1 X65.921 Y89.015 E1.34460
G1 X66.728 Y91.500 E1.43075
G1 X66.395 Y92.524 E1.46626
G1 X66.395 Y92.524 E1.46626
G1 X65.921 Y93.985 E1.51690
G1 X63.807 Y95.521 E1.60305
G1 X61.193 Y95.521 E1.68920
G1 X59.079 Y93.985 E1.77535
G1 X58.309 Y91.614 E1.85755
G1 X59.079 Y91.500 F12000.000
G1 X59.479 Y90.270 F1980.000 E1.90020
G1 X59.479 Y90.270 E1.90020
G1 X59.733 Y89.489 E1.92724
G1 X61.443 Y88.247 E1.99694
G1 X63.557 Y88.247 E2.06665
G1 X65.267 Y89.489 E2.13634
G1 X65.921 Y91.500 E2.20604
G1 X65.837 Y91.757 E2.21494
G1 X65.837 Y91.757 E2.21494
G1 X65.267 Y93.511 E2.27574
G1 X63.557 Y94.753 E2.34544
G1 X61.443 Y94.753 E2.41515
G1 X59.733 Y93.511 E2.48484
G1 X59.116 Y91.614 E2.55059
G1 F2100.000 E1.55059
G1 Z0.800 F12000.000
G92 E0
G1 X61.193 Y107.479
G1 Z0.500
G1 F2100.000 E1.00000
G1 X63.807 Y107.479 F1980.000 E1.08615
G1 X65.921 Y109.015 E1.17230
G1 X66.728 Y111.500 E1.25845
G1 X66.395 Y112.524 E1.29396
G1 X66.395 Y112.524 E1.29396
G1 X65.921 Y113.985 E1.34460
G1 X63.807 Y115.521 E1.43075
G1 X61.193 Y115.521 E1.51690
G1 X59.079 Y113.985 E1.60305
G1 X58.272 Y111.500 E1.68920
G1 X59.079 Y109.015 E1.77535
G1 X61.096 Y107.550 E1.85755
G1 X61.443 Y108.247 F12000.000
G1 X63.557 Y108.247 F1980.000 E1.92725
G1 X65.267 Y109.489 E1.99695
G1 X65.921 Y111.500 E2.06665
G1 X65.837 Y111.757 E2.07554
G1 X65.837 Y111.757 E2.07554
G1 X65.267 Y113.511 E2.13635
G1 X63.557 Y114.753 E2.20605
G1 X61.443 Y114.753 E2.27575
G1 X59.733 Y113.511 E2.34545
G1 X59.079 Y111.500 E2.41515
G1 X59.733 Y109.489 E2.48485
G1 X61.346 Y108.317 E2.55059
G1 F2100.000 E1.55059
G1 Z0.800 F12000.000
G92 E0
G1 X61.193 Y127.479
G1 Z0.500
G1 F2100.000 E1.00000
G1 X63.807 Y127.479 F1980.000 E1.08615
G1 X65.921 Y129.015 E1.17230
G1 X66.728 Y131.500 E1.25845
G1 X66.395 Y132.524 E1.29396
G1 X66.395 Y132.524 E1.29396
G1 X65.921 Y133.985 E1.34460
G1 X63.807 Y135.521 E1.43075
G1 X61.193 Y135.521 E1.51690
G1 X59.079 Y133.985 E1.60305
G1 X58.272 Y131.500 E1.68920
G1 X59.079 Y129.015 E1.77535
G1 X61.096 Y127.550 E1.85755
G1 X61.443 Y128.247 F12000.000
G1 X63.557 Y128.247 F1980.000 E1.92725
G1 X65.267 Y129.489 E1.99695
G1 X65.921 Y131.500 E2.06665
G1 X65.837 Y131.757 E2.07554
G1 X65.837 Y131.757 E2.07554
G1 X65.267 Y133.511 E2.13635
G1 X63.557 Y134.753 E2.20605
G1 X61.443 Y134.753 E2.27575
G1 X59.733 Y133.511 E2.34545
G1 X59.079 Y131.500 E2.41515
G1 X59.733 Y129.489 E2.48485
G1 X61.346 Y128.317 E2.55059
G1 F2100.000 E1.55059
G1 Z0.800 F12000.000
G92 E0
G1 X13.668 Y91.016
G1 Z0.500
G1 F2100.000 E1.00000
G1 X13.668 Y82.668 F2970.000 E1.27525
G1 X71.332 Y82.668 E3.17642
G1 X71.332 Y140.332 E5.07760
G1 X62.984 Y140.332 E5.35285
G1 X45.484 Y122.832 E6.16881
G1 X33.668 Y122.832 E6.55837
G1 X33.668 Y111.016 E6.94794
G1 X13.753 Y91.101 E7.87651
G1 X12.900 Y91.334 F12000.000
G1 X12.900 Y81.900 F2970.000 E8.18755
G1 X72.100 Y81.900 E10.13936
G1 X72.100 Y141.100 E12.09117
G1 X62.666 Y141.100 E12.40221
G1 X45.166 Y123.600 E13.21817
G1 X32.900 Y123.600 E13.62257
G1 X32.900 Y111.334 E14.02696
G1 X12.985 Y91.419 E14.95553
G1 F2100.000 E13.95553
G1 Z0.800 F12000.000
G92 E0
G1 X143.272 Y91.500
G1 Z0.500
G1 F2100.000 E1.00000
G1 X144.079 Y89.015 F1980.000 E1.08615
G1 X146.304 Y87.399 E1.17680
G1 X146.384 Y87.479 E1.18054
G1 X148.807 Y87.479 E1.26041
G1 X150.921 Y89.015 E1.34656
G1 X151.728 Y91.500 E1.43271
G1 X150.921 Y93.985 E1.51886
G1 X148.807 Y95.521 E1.60501
G1 X146.193 Y95.521 E1.69116
G1 X144.511 Y94.298 E1.75974
G1 X144.181 Y94.298 E1.77060
G1 X144.082 Y93.994 E1.78116
G1 X144.082 Y93.994 E1.78116
G1 X143.309 Y91.614 E1.86365
G1 X144.079 Y91.500 F12000.000
G1 X144.733 Y89.489 F1980.000 E1.93335
G1 X146.225 Y88.405 E1.99416
G1 X146.225 Y88.405 E1.99416
G1 X146.443 Y88.247 E2.00305
G1 X148.557 Y88.247 E2.07275
G1 X150.267 Y89.489 E2.14245
G1 X150.921 Y91.500 E2.21215
G1 X150.267 Y93.511 E2.28185
G1 X148.557 Y94.753 E2.35155
G1 X146.443 Y94.753 E2.42125
G1 X144.760 Y93.530 E2.48983
G1 X144.739 Y93.530 E2.49052
G1 X144.733 Y93.511 E2.49121
G1 X144.733 Y93.511 E2.49121
G1 X144.116 Y91.614 E2.55696
G1 F2100.000 E1.55696
G1 Z0.800 F12000.000
G92 E0
G1 X131.728 Y91.500
G1 Z0.500
G1 F2100.000 E1.00000
G1 X130.921 Y93.985 F1980.000 E1.08615
G1 X128.807 Y95.521 E1.17230
G1 X126.193 Y95.521 E1.25845
G1 X124.511 Y94.298 E1.32704
G1 X124.181 Y94.298 E1.33789
G1 X124.082 Y93.994 E1.34845
G1 X124.082 Y93.994 E1.34846
G1 X123.272 Y91.500 E1.43490
G1 X124.079 Y89.015 E1.52105
G1 X126.304 Y87.399 E1.61170
G1 X126.384 Y87.479 E1.61544
G1 X128.807 Y87.479 E1.69531
G1 X130.921 Y89.015 E1.78146
G1 X131.691 Y91.386 E1.86365
G1 X130.921 Y91.500 F12000.000
G1 X130.267 Y93.511 F1980.000 E1.93335
G1 X128.557 Y94.753 E2.00305
G1 X126.443 Y94.753 E2.07275
G1 X124.760 Y93.530 E2.14134
G1 X124.739 Y93.530 E2.14202
G1 X124.733 Y93.511 E2.14271
G1 X124.733 Y93.511 E2.14271
G1 X124.079 Y91.500 E2.21241
G1 X124.733 Y89.489 E2.28211
G1 X126.225 Y88.405 E2.34292
G1 X126.225 Y88.405 E2.34292
G1 X126.443 Y88.247 E2.35181
G1 X128.557 Y88.247 E2.42151
G1 X130.267 Y89.489 E2.49121
G1 X130.884 Y91.386 E2.55696
G1 F2100.000 E1.55696
G1 Z0.800 F12000.000
G92 E0
G1 X111.728 Y91.500
G1 Z0.500
G1 F2100.000 E1.00000
G1 X110.921 Y93.985 F1980.000 E1.08615
G1 X108.807 Y95.521 E1.17230
G1 X106.194 Y95.521 E1.25845
G1 X104.080 Y93.985 E1.34460
G1 X103.272 Y91.500 E1.43075
G1 X104.080 Y89.015 E1.51690
G1 X106.194 Y87.479 E1.60305
G1 X108.807 Y87.479 E1.68920
G1 X110.921 Y89.015 E1.77535
G1 X111.691 Y91.386 E1.85754
G1 X110.921 Y91.500 F12000.000
G1 X110.267 Y93.511 F1980.000 E1.92724
G1 X108.557 Y94.753 E1.99694
G1 X106.443 Y94.753 E2.06664
G1 X104.733 Y93.511 E2.13634
G1 X104.079 Y91.500 E2.20604
G1 X104.733 Y89.489 E2.27574
G1 X106.443 Y88.247 E2.34544
G1 X108.557 Y88.247 E2.41514
G1 X110.267 Y89.489 E2.48484
G1 X110.884 Y91.386 E2.55058
G1 F2100.000 E1.55058
G1 Z0.800 F12000.000
G92 E0
G1 X108.807 Y107.479
G1 Z0.500
G1 F2100.000 E1.00000
G1 X110.921 Y109.015 F1980.000 E1.08615
G1 X111.567 Y111.006 E1.15518
G1 X111.567 Y111.006 E1.15518
G1 X111.728 Y111.500 E1.17230
G1 X110.921 Y113.985 E1.25845
G1 X108.807 Y115.521 E1.34460
G1 X106.194 Y115.521 E1.43075
G1 X104.080 Y113.985 E1.51690
G1 X103.593 Y112.486 E1.56886
G1 X103.593 Y112.486 E1.56886
G1 X103.272 Y111.500 E1.60305
G1 X103.593 Y110.514 E1.63724
G1 X103.593 Y110.514 E1.63724
G1 X104.080 Y109.015 E1.68921
G1 X106.194 Y107.479 E1.77535
G1 X108.687 Y107.479 E1.85755
G1 X108.557 Y108.247 F12000.000
G1 X110.267 Y109.489 F1980.000 E1.92725
G1 X110.921 Y111.500 E1.99695
G1 X110.267 Y113.511 E2.06665
G1 X108.557 Y114.753 E2.13635
G1 X106.443 Y114.753 E2.20605
G1 X104.733 Y113.511 E2.27575
G1 X104.649 Y113.254 E2.28464
G1 X104.649 Y113.254 E2.28464
G1 X104.079 Y111.500 E2.34545
G1 X104.649 Y109.746 E2.40625
G1 X104.649 Y109.746 E2.40625
G1 X104.733 Y109.489 E2.41515
G1 X106.443 Y108.247 E2.48485
G1 X108.437 Y108.247 E2.55059
G1 F2100.000 E1.55059
G1 Z0.800 F12000.000
G92 E0
G1 X108.807 Y127.479
G1 Z0.500
G1 F2100.000 E1.00000
G1 X110.921 Y129.015 F1980.000 E1.08615
G1 X111.567 Y131.006 E1.15518
G1 X111.567 Y131.006 E1.15518
G1 X111.728 Y131.500 E1.17230
G1 X110.921 Y133.985 E1.25845
G1 X108.807 Y135.521 E1.34460
G1 X106.194 Y135.521 E1.43075
G1 X104.080 Y133.985 E1.51690
G1 X103.593 Y132.486 E1.56886
G1 X103.593 Y132.486 E1.56886
G1 X103.272 Y131.500 E1.60305
G1 X103.593 Y130.514 E1.63724
G1 X103.593 Y130.514 E1.63724
G1 X104.080 Y129.015 E1.68921
G1 X106.194 Y127.479 E1.77535
G1 X108.687 Y127.479 E1.85755
G1 X108.557 Y128.247 F12000.000
G1 X110.267 Y129.489 F1980.000 E1.92725
G1 X110.921 Y131.500 E1.99695
G1 X110.267 Y133.511 E2.06665
G1 X108.557 Y134.753 E2.13635
G1 X106.443 Y134.753 E2.20605
G1 X104.733 Y133.511 E2.27575
G1 X104.649 Y133.254 E2.28464
G1 X104.649 Y133.254 E2.28464
G1 X104.079 Y131.500 E2.34545
G1 X104.649 Y129.746 E2.40625
G1 X104.649 Y129.746 E2.40625
G1 X104.733 Y129.489 E2.41515
G1 X106.443 Y128.247 E2.48485
G1 X108.437 Y128.247 E2.55059
G1 F2100.000 E1.55059
G1 Z0.800 F12000.000
G92 E0
G1 X78.668 Y108.322
G1 Z0.500
G1 F2100.000 E1.00000
G1 X78.668 Y100.158 F2970.000 E1.26918
G1 X98.668 Y100.158 E1.92857
G1 X98.668 Y82.668 E2.50521
G1 X156.332 Y82.668 E4.40639
G1 X156.332 Y91.016 E4.68163
G1 X136.332 Y111.016 E5.61416
G1 X136.332 Y132.832 E6.33342
G1 X118.668 Y132.832 E6.91581
G1 X118.668 Y130.827 E6.98191
G1 X117.150 Y130.199 E7.03608
G1 X107.016 Y140.332 E7.50857
G1 X98.668 Y140.332 E7.78381
G1 X98.668 Y108.322 E8.83917
G1 X78.788 Y108.322 E9.49461
G1 F2100.000 E8.49461
G1 Z0.800 F12000.000
G92 E0
G1 X77.900 Y109.090
G1 Z0.500
G1 F2100.000 E1.00000
G1 X77.900 Y99.390 F2970.000 E1.31981
G1 X97.900 Y99.390 E1.97920
G1 X97.900 Y81.900 E2.55584
G1 X157.100 Y81.900 E4.50765
G1 X157.100 Y91.334 E4.81869
G1 X137.100 Y111.334 E5.75122
G1 X137.100 Y133.600 E6.48531
G1 X117.900 Y133.600 E7.11833
G1 X117.900 Y131.341 E7.19282
G1 X117.330 Y131.104 E7.21317
G1 X107.334 Y141.100 E7.67922
G1 X97.900 Y141.100 E7.99027
G1 X97.900 Y109.090 E9.04563
G1 X78.020 Y109.090 E9.70107
G1 F2100.000 E8.70107
G1 Z0.800 F12000.000
G92 E0
G1 X106.194 Y32.521
G1 Z0.500
G1 F2100.000 E1.00000
G1 X104.080 Y30.985 F1980.000 E1.08615
G1 X103.593 Y29.486 E1.13811
G1 X103.593 Y29.486 E1.13811
G1 X103.272 Y28.500 E1.17230
G1 X104.080 Y26.015 E1.25845
G1 X106.194 Y24.479 E1.34460
G1 X108.807 Y24.479 E1.43075
