; generated by Slic3r 0.8.5-dev on 2012-09-07 at 16:29:16

; layer_height = 0.4
; perimeters = 2
; solid_layers = 3
; fill_density = 0.25
; perimeter_speed = 90
; infill_speed = 190
; travel_speed = 300
; scale = 1
; nozzle_diameter = 0.5
; filament_diameter = 2.89
; extrusion_multiplier = 1.00
; single wall width = 0.53mm
; first layer single wall width = 0.80mm

G28 ; home all axes
G90 ; use absolute coordinates
G21 ; set units to millimeters
G92 E0
M82 ; use absolute distances for extrusion
G1 Z0.600 F18000.000
G1 X28.690 Y24.500
G1 F2100.000 E1.40000
G1 X29.070 Y24.080 F2970.000 E1.42541
G1 X29.480 Y23.700 E1.45048
G1 X30.150 Y23.180 E1.48853
G1 X30.630 Y22.880 E1.51392
G1 X31.380 Y22.500 E1.55163
G1 X32.180 Y22.210 E1.58980
G1 X32.720 Y22.060 E1.61494
G1 X33.550 Y21.920 E1.65270
G1 X34.400 Y21.870 E1.69089
G1 X64.390 Y21.860 E3.03615
G1 X123.900 Y21.870 E5.70557
G1 X124.490 Y21.920 E5.73213
G1 X125.360 Y22.070 E5.77173
G1 X125.930 Y22.230 E5.79829
G1 X126.480 Y22.440 E5.82470
G1 X127.020 Y22.690 E5.85139
G1 X127.540 Y22.970 E5.87788
G1 X128.270 Y23.480 E5.91783
G1 X128.930 Y24.070 E5.95754
G1 X141.130 Y36.280 E6.73178
G1 X141.520 Y36.730 E6.75850
G1 X141.870 Y37.210 E6.78514
G1 X142.030 Y37.460 E6.79846
G1 X142.440 Y38.250 E6.83838
G1 X142.670 Y38.790 E6.86471
G1 X142.770 Y39.070 E6.87805
G1 X142.930 Y39.640 E6.90460
G1 X143.080 Y40.510 E6.94421
G1 X143.140 Y41.400 E6.98422
G1 X143.110 Y130.890 E10.99845
G1 X143.070 Y131.450 E11.02363
G1 X142.930 Y132.280 E11.06139
G1 X142.780 Y132.830 E11.08696
G1 X142.490 Y133.620 E11.12471
G1 X141.960 Y134.610 E11.17508
G1 X141.640 Y135.080 E11.20059
G1 X141.290 Y135.520 E11.22581
G1 X140.910 Y135.930 E11.25088
G1 X140.700 Y136.130 E11.26389
G1 X140.280 Y136.490 E11.28870
G1 X139.820 Y136.830 E11.31436
G1 X139.350 Y137.130 E11.33937
G1 X138.590 Y137.510 E11.37749
G1 X138.330 Y137.620 E11.39015
G1 X137.530 Y137.880 E11.42789
G1 X137.260 Y137.950 E11.44040
G1 X136.420 Y138.090 E11.47860
G1 X135.580 Y138.140 E11.51634
G1 X116.100 Y138.130 E12.39015
G1 X115.190 Y138.040 E12.43117
G1 X114.600 Y137.920 E12.45818
G1 X113.730 Y137.650 E12.49904
G1 X113.170 Y137.410 E12.52637
G1 X112.640 Y137.130 E12.55326
G1 X111.880 Y136.630 E12.59406
G1 X71.880 Y106.620 E14.83717
G1 X71.070 Y105.920 E14.88519
G1 X59.060 Y93.920 E15.64675
G1 X58.360 Y93.110 E15.69478
G1 X28.190 Y52.860 E17.95116
G1 X27.720 Y52.090 E17.99162
G1 X27.350 Y51.260 E18.03239
G1 X27.080 Y50.390 E18.07325
G1 X26.960 Y49.800 E18.10026
G1 X26.870 Y48.890 E18.14128
G1 X26.870 Y29.130 E19.02764
G1 X26.910 Y28.570 E19.05283
G1 X27.050 Y27.730 E19.09103
G1 X27.290 Y26.920 E19.12892
G1 X27.490 Y26.400 E19.15391
G1 X27.870 Y25.640 E19.19203
G1 X28.170 Y25.170 E19.21704
G1 X28.510 Y24.710 E19.24270
G1 X28.612 Y24.591 E19.24972
G1 X29.160 Y25.130 F18000.000
G1 X29.330 Y24.920 F2970.000 E19.26184
G1 X29.710 Y24.530 E19.28627
G1 X30.330 Y24.000 E19.32286
G1 X30.780 Y23.690 E19.34737
G1 X31.250 Y23.420 E19.37168
G1 X31.750 Y23.180 E19.39656
G1 X32.260 Y22.990 E19.42097
G1 X32.780 Y22.840 E19.44525
G1 X33.310 Y22.730 E19.46953
G1 X33.850 Y22.660 E19.49396
G1 X64.390 Y22.630 E20.86388
G1 X123.880 Y22.640 E23.53241
G1 X124.440 Y22.680 E23.55759
G1 X124.710 Y22.720 E23.56983
G1 X125.530 Y22.910 E23.60759
G1 X126.320 Y23.200 E23.64534
G1 X126.820 Y23.450 E23.67042
G1 X127.300 Y23.730 E23.69534
G1 X127.760 Y24.060 E23.72074
G1 X128.390 Y24.610 E23.75825
G1 X140.580 Y36.820 E24.53218
G1 X140.940 Y37.240 E24.55700
G1 X141.270 Y37.700 E24.58239
G1 X141.680 Y38.430 E24.61995
G1 X141.800 Y38.680 E24.63239
G1 X142.090 Y39.470 E24.67014
G1 X142.280 Y40.290 E24.70789
G1 X142.320 Y40.560 E24.72014
G1 X142.370 Y41.400 E24.75788
G1 X142.330 Y131.150 E28.78377
G1 X142.260 Y131.690 E28.80820
G1 X142.080 Y132.490 E28.84498
G1 X141.910 Y133.000 E28.86910
G1 X141.570 Y133.750 E28.90604
G1 X141.300 Y134.220 E28.93035
G1 X140.990 Y134.670 E28.95486
G1 X140.460 Y135.290 E28.99145
G1 X140.070 Y135.670 E29.01587
G1 X139.420 Y136.170 E29.05266
G1 X139.200 Y136.320 E29.06460
G1 X138.230 Y136.830 E29.11376
G1 X137.720 Y137.020 E29.13817
G1 X137.200 Y137.170 E29.16245
G1 X136.670 Y137.280 E29.18673
G1 X136.120 Y137.350 E29.21160
G1 X135.580 Y137.370 E29.23584
G1 X116.110 Y137.360 E30.10920
G1 X115.240 Y137.270 E30.14844
G1 X114.400 Y137.060 E30.18727
G1 X113.850 Y136.870 E30.21338
G1 X113.320 Y136.630 E30.23947
G1 X112.570 Y136.180 E30.27871
G1 X72.340 Y106.000 E32.53464
G1 X71.620 Y105.380 E32.57726
G1 X59.610 Y93.380 E33.33883
G1 X58.980 Y92.650 E33.38208
G1 X28.820 Y52.410 E35.63783
G1 X28.510 Y51.920 E35.66384
G1 X28.370 Y51.670 E35.67670
G1 X28.130 Y51.140 E35.70279
G1 X27.930 Y50.590 E35.72905
G1 X27.730 Y49.750 E35.76778
G1 X27.640 Y48.880 E35.80701
G1 X27.650 Y28.870 E36.70460
G1 X27.720 Y28.320 E36.72947
G1 X27.830 Y27.790 E36.75375
G1 X27.980 Y27.270 E36.77802
G1 X28.170 Y26.760 E36.80244
G1 X28.540 Y26.030 E36.83915
G1 X28.680 Y25.790 E36.85161
G1 X29.087 Y25.225 E36.88284
G1 F2100.000 E35.48284
G1 Z0.900 F18000.000
G92 E0
G1 X121.979 Y49.693
G1 Z0.600
G1 F2100.000 E1.40000
G1 X123.515 Y47.579 F1980.000 E1.51721
G1 X125.020 Y47.090 E1.58822
G1 X125.020 Y47.090 E1.58822
G1 X126.000 Y46.772 E1.63442
G1 X128.485 Y47.579 E1.75163
G1 X130.021 Y49.693 E1.86884
G1 X130.021 Y52.307 E1.98606
G1 X128.485 Y54.421 E2.10327
G1 X126.000 Y55.228 E2.22048
G1 X125.020 Y54.910 E2.26668
G1 X125.020 Y54.910 E2.26668
G1 X123.515 Y54.421 E2.33769
G1 X121.979 Y52.307 E2.45490
G1 X121.979 Y49.813 E2.56673
G1 X122.747 Y49.943 F18000.000
G1 X123.989 Y48.233 F1980.000 E2.66156
G1 X125.788 Y47.648 E2.74640
G1 X125.788 Y47.648 E2.74640
G1 X126.000 Y47.579 E2.75639
G1 X128.011 Y48.233 E2.85122
G1 X129.253 Y49.943 E2.94605
G1 X129.253 Y52.057 E3.04088
G1 X128.011 Y53.767 E3.13571
G1 X126.000 Y54.421 E3.23054
G1 X125.788 Y54.352 E3.24053
G1 X125.788 Y54.352 E3.24053
G1 X123.989 Y53.767 E3.32537
G1 X122.747 Y52.057 E3.42020
G1 X122.747 Y50.063 E3.50965
G1 F2100.000 E2.10965
G1 Z0.900 F18000.000
G92 E0
G1 X126.000 Y66.772
G1 Z0.600
G1 F2100.000 E1.40000
G1 X128.485 Y67.579 F1980.000 E1.51721
G1 X130.021 Y69.693 E1.63442
G1 X130.021 Y72.307 E1.75163
G1 X128.485 Y74.421 E1.86885
G1 X126.000 Y75.228 E1.98606
G1 X125.020 Y74.910 E2.03226
G1 X125.020 Y74.910 E2.03226
G1 X123.515 Y74.421 E2.10327
G1 X121.979 Y72.307 E2.22048
G1 X121.979 Y69.693 E2.33769
G1 X123.515 Y67.579 E2.45490
G1 X125.020 Y67.090 E2.52591
G1 X125.020 Y67.090 E2.52591
G1 X125.886 Y66.809 E2.56673
G1 X126.000 Y67.579 F18000.000
G1 X128.011 Y68.233 F1980.000 E2.66156
G1 X129.253 Y69.943 E2.75639
G1 X129.253 Y72.057 E2.85122
G1 X128.011 Y73.767 E2.94605
G1 X126.000 Y74.421 E3.04088
G1 X125.788 Y74.352 E3.05087
G1 X125.788 Y74.352 E3.05087
G1 X123.989 Y73.767 E3.13571
G1 X122.747 Y72.057 E3.23054
G1 X122.747 Y69.943 E3.32537
G1 X123.989 Y68.233 E3.42020
G1 X125.788 Y67.648 E3.50505
G1 X125.788 Y67.648 E3.50505
G1 X125.886 Y67.616 E3.50965
G1 F2100.000 E2.10965
G1 Z0.900 F18000.000
G92 E0
G1 X90.021 Y89.693
G1 Z0.600
G1 F2100.000 E1.40000
G1 X90.021 Y92.307 F1980.000 E1.51721
G1 X88.485 Y94.421 E1.63442
G1 X86.000 Y95.228 E1.75163
G1 X85.020 Y94.910 E1.79784
G1 X85.020 Y94.910 E1.79784
G1 X83.515 Y94.421 E1.86885
G1 X81.979 Y92.307 E1.98606
G1 X81.979 Y89.693 E2.10327
G1 X83.515 Y87.579 E2.22048
G1 X85.020 Y87.090 E2.29149
G1 X85.020 Y87.090 E2.29149
G1 X86.000 Y86.772 E2.33769
G1 X88.485 Y87.579 E2.45490
G1 X89.950 Y89.596 E2.56673
G1 X89.253 Y89.943 F18000.000
G1 X89.253 Y92.057 F1980.000 E2.66157
G1 X88.011 Y93.767 E2.75639
G1 X86.000 Y94.421 E2.85122
G1 X85.788 Y94.352 E2.86121
G1 X85.788 Y94.352 E2.86121
G1 X83.989 Y93.767 E2.94605
G1 X82.747 Y92.057 E3.04088
G1 X82.747 Y89.943 E3.13572
G1 X83.989 Y88.233 E3.23054
G1 X85.788 Y87.648 E3.31539
G1 X85.788 Y87.648 E3.31539
G1 X86.000 Y87.579 E3.32537
G1 X88.011 Y88.233 E3.42020
G1 X89.183 Y89.846 E3.50965
G1 F2100.000 E2.10965
G1 Z0.900 F18000.000
G92 E0
G1 X101.979 Y89.693
G1 Z0.600
G1 F2100.000 E1.40000
G1 X103.515 Y87.579 F1980.000 E1.51721
G1 X105.020 Y87.090 E1.58822
G1 X105.020 Y87.090 E1.58822
G1 X106.000 Y86.772 E1.63442
G1 X108.485 Y87.579 E1.75163
G1 X110.021 Y89.693 E1.86884
G1 X110.021 Y92.307 E1.98606
G1 X108.485 Y94.421 E2.10327
G1 X106.000 Y95.228 E2.22048
G1 X105.020 Y94.910 E2.26668
G1 X105.020 Y94.910 E2.26668
G1 X103.515 Y94.421 E2.33769
G1 X101.979 Y92.307 E2.45490
G1 X101.979 Y89.813 E2.56673
G1 X102.747 Y89.943 F18000.000
G1 X103.989 Y88.233 F1980.000 E2.66156
G1 X105.788 Y87.648 E2.74640
G1 X105.788 Y87.648 E2.74640
G1 X106.000 Y87.579 E2.75639
G1 X108.011 Y88.233 E2.85122
G1 X109.253 Y89.943 E2.94605
G1 X109.253 Y92.057 E3.04088
G1 X108.011 Y93.767 E3.13571
G1 X106.000 Y94.421 E3.23054
G1 X105.788 Y94.352 E3.24053
G1 X105.788 Y94.352 E3.24053
G1 X103.989 Y93.767 E3.32537
G1 X102.747 Y92.057 E3.42020
G1 X102.747 Y90.063 E3.50965
G1 F2100.000 E2.10965
G1 Z0.900 F18000.000
G92 E0
G1 X121.979 Y89.693
G1 Z0.600
G1 F2100.000 E1.40000
G1 X123.515 Y87.579 F1980.000 E1.51721
G1 X125.020 Y87.090 E1.58822
G1 X125.020 Y87.090 E1.58822
G1 X126.000 Y86.772 E1.63442
G1 X128.485 Y87.579 E1.75163
G1 X130.021 Y89.693 E1.86884
G1 X130.021 Y92.307 E1.98606
G1 X128.485 Y94.421 E2.10327
G1 X126.000 Y95.228 E2.22048
G1 X125.020 Y94.910 E2.26668
G1 X125.020 Y94.910 E2.26668
G1 X123.515 Y94.421 E2.33769
G1 X121.979 Y92.307 E2.45490
G1 X121.979 Y89.813 E2.56673
G1 X122.747 Y89.943 F18000.000
G1 X123.989 Y88.233 F1980.000 E2.66156
G1 X125.788 Y87.648 E2.74640
G1 X125.788 Y87.648 E2.74640
G1 X126.000 Y87.579 E2.75639
G1 X128.011 Y88.233 E2.85122
G1 X129.253 Y89.943 E2.94605
G1 X129.253 Y92.057 E3.04088
G1 X128.011 Y93.767 E3.13571
G1 X126.000 Y94.421 E3.23054
G1 X125.788 Y94.352 E3.24053
G1 X125.788 Y94.352 E3.24053
G1 X123.989 Y93.767 E3.32537
G1 X122.747 Y92.057 E3.42020
G1 X122.747 Y90.063 E3.50965
G1 F2100.000 E2.10965
G1 Z0.900 F18000.000
G92 E0
G1 X77.168 Y99.832
G1 Z0.600
G1 F2100.000 E1.40000
G1 X77.168 Y91.484 F2970.000 E1.77449
G1 X126.484 Y42.168 E4.90294
G1 X134.832 Y42.168 E5.27742
G1 X134.832 Y99.832 E7.86406
G1 X134.822 Y99.832 E7.86451
G1 X134.822 Y119.832 E8.76164
G1 X134.812 Y119.832 E8.76209
G1 X134.812 Y129.832 E9.21066
G1 X117.168 Y129.832 E10.00213
G1 X117.168 Y119.832 E10.45069
G1 X117.158 Y119.832 E10.45114
G1 X117.158 Y99.832 E11.34828
G1 X77.288 Y99.832 E13.13672
G1 F2100.000 E11.73672
G1 Z0.900 F18000.000
G92 E0
G1 X76.400 Y100.600
G1 Z0.600
G1 F2100.000 E1.40000
G1 X76.400 Y91.166 F2970.000 E1.82319
G1 X126.166 Y41.400 E4.98018
G1 X135.600 Y41.400 E5.40337
G1 X135.600 Y100.600 E8.05889
G1 X135.590 Y100.600 E8.05934
G1 X135.590 Y120.600 E8.95647
G1 X135.580 Y120.600 E8.95692
G1 X135.580 Y130.600 E9.40549
G1 X116.400 Y130.600 E10.26584
G1 X116.400 Y120.600 E10.71441
G1 X116.390 Y120.600 E10.71486
G1 X116.390 Y100.600 E11.61199
G1 X76.520 Y100.600 E13.40043
G1 F2100.000 E12.00043
G1 Z0.900 F18000.000
G92 E0
G1 X110.696 Y41.843
G1 Z0.600
G1 F2100.000 E1.40000
G1 X110.581 Y41.489 F1980.000 E1.41668
G1 X110.581 Y41.489 E1.41669
G1 X109.772 Y39.000 E1.53409
G1 X110.579 Y36.515 E1.65130
G1 X112.693 Y34.979 E1.76851
G1 X115.307 Y34.979 E1.88573
G1 X117.421 Y36.515 E2.00294
G1 X118.226 Y38.993 E2.11984
G1 X118.226 Y38.994 E2.11984
G1 X118.579 Y40.080 E2.17107
G1 X117.877 Y40.080 E2.20254
G1 X117.421 Y41.485 E2.26883
G1 X115.307 Y43.021 E2.38604
G1 X112.693 Y43.021 E2.50325
G1 X111.072 Y41.843 E2.59315
G1 X110.816 Y41.843 E2.60465
G1 X111.254 Y41.075 F18000.000
G1 X111.232 Y41.009 F1980.000 E2.60777
G1 X111.232 Y41.009 E2.60778
G1 X110.579 Y39.000 E2.70252
G1 X111.074 Y37.478 E2.77433
G1 X111.074 Y37.478 E2.77433
G1 X111.233 Y36.989 E2.79735
G1 X112.943 Y35.747 E2.89218
G1 X115.057 Y35.747 E2.98702
G1 X116.767 Y36.989 E3.08184
G1 X117.421 Y39.001 E3.17673
G1 X117.421 Y39.001 E3.17673
G1 X117.522 Y39.312 E3.19138
G1 X117.319 Y39.312 E3.20047
G1 X116.767 Y41.011 E3.28059
G1 X115.057 Y42.253 E3.37542
G1 X112.943 Y42.253 E3.47025
G1 X111.364 Y41.106 E3.55782
G1 F2100.000 E2.15782
G1 Z0.900 F18000.000
G92 E0
G1 X98.409 Y38.444
G1 Z0.600
G1 F2100.000 E1.40000
G1 X97.421 Y41.485 F1980.000 E1.54344
G1 X95.307 Y43.021 E1.66065
G1 X92.693 Y43.021 E1.77786
G1 X91.072 Y41.843 E1.86776
G1 X90.696 Y41.843 E1.88464
G1 X90.576 Y41.474 E1.90206
G1 X90.576 Y41.474 E1.90206
G1 X89.772 Y39.000 E2.01873
G1 X90.306 Y37.355 E2.09630
G1 X90.306 Y37.355 E2.09630
G1 X90.579 Y36.515 E2.13594
G1 X92.693 Y34.979 E2.25315
G1 X95.307 Y34.979 E2.37037
G1 X97.421 Y36.515 E2.48758
G1 X97.910 Y38.020 E2.55858
G1 X97.910 Y38.020 E2.55858
G1 X98.047 Y38.444 E2.57856
G1 X98.289 Y38.444 E2.58938
G1 X97.352 Y38.788 F18000.000
G1 X97.421 Y39.000 F1980.000 E2.59937
G1 X97.352 Y39.212 E2.60936
G1 X97.352 Y39.212 E2.60936
G1 X96.767 Y41.011 E2.69420
G1 X95.057 Y42.253 E2.78903
G1 X92.943 Y42.253 E2.88386
G1 X91.322 Y41.075 E2.97376
G1 X91.254 Y41.075 E2.97681
G1 X91.232 Y41.009 E2.97994
G1 X91.232 Y41.009 E2.97994
G1 X90.579 Y39.000 E3.07469
G1 X91.233 Y36.989 E3.16951
G1 X92.943 Y35.747 E3.26434
G1 X95.057 Y35.747 E3.35918
G1 X96.767 Y36.989 E3.45401
G1 X97.315 Y38.674 E3.53346
G1 F2100.000 E2.13346
G1 Z0.900 F18000.000
G92 E0
G1 X78.409 Y38.444
G1 Z0.600
G1 F2100.000 E1.40000
G1 X77.421 Y41.485 F1980.000 E1.54344
G1 X75.307 Y43.021 E1.66065
G1 X72.694 Y43.021 E1.77786
G1 X70.692 Y41.567 E1.88885
G1 X70.606 Y41.567 E1.89269
G1 X69.772 Y39.000 E2.01375
G1 X70.580 Y36.515 E2.13096
G1 X72.694 Y34.979 E2.24817
G1 X75.307 Y34.979 E2.36538
G1 X77.421 Y36.515 E2.48259
G1 X77.910 Y38.020 E2.55360
G1 X77.910 Y38.020 E2.55360
G1 X78.047 Y38.444 E2.57358
G1 X78.289 Y38.444 E2.58440
G1 X77.352 Y38.788 F18000.000
G1 X77.421 Y39.000 F1980.000 E2.59439
G1 X77.352 Y39.212 E2.60438
G1 X77.352 Y39.212 E2.60438
G1 X76.767 Y41.011 E2.68922
G1 X75.057 Y42.253 E2.78405
G1 X72.943 Y42.253 E2.87888
G1 X71.233 Y41.011 E2.97371
G1 X71.164 Y40.799 E2.98369
G1 X71.164 Y40.799 E2.98370
G1 X70.579 Y39.000 E3.06854
G1 X71.233 Y36.989 E3.16337
G1 X72.943 Y35.747 E3.25819
G1 X75.057 Y35.747 E3.35303
G1 X76.767 Y36.989 E3.44785
G1 X77.315 Y38.674 E3.52731
G1 F2100.000 E2.12731
G1 Z0.900 F18000.000
G92 E0
G1 X75.307 Y54.979
G1 Z0.600
G1 F2100.000 E1.40000
G1 X77.421 Y56.515 F1980.000 E1.51721
G1 X78.228 Y59.000 E1.63442
G1 X77.421 Y61.485 E1.75163
G1 X75.307 Y63.021 E1.86884
G1 X72.694 Y63.021 E1.98605
G1 X70.692 Y61.567 E2.09705
G1 X70.606 Y61.567 E2.10089
G1 X69.772 Y59.000 E2.22195
G1 X70.606 Y56.433 E2.34300
G1 X70.692 Y56.433 E2.34685
G1 X72.694 Y54.979 E2.45784
G1 X75.187 Y54.979 E2.56966
G1 X75.057 Y55.747 F18000.000
G1 X76.767 Y56.989 F1980.000 E2.66449
G1 X77.421 Y59.000 E2.75932
G1 X76.767 Y61.011 E2.85415
G1 X75.057 Y62.253 E2.94898
G1 X72.943 Y62.253 E3.04381
G1 X71.233 Y61.011 E3.13864
G1 X71.164 Y60.799 E3.14863
G1 X71.164 Y60.799 E3.14863
G1 X70.579 Y59.000 E3.23347
G1 X71.164 Y57.201 E3.31831
G1 X71.164 Y57.201 E3.31831
G1 X71.233 Y56.989 E3.32830
G1 X72.943 Y55.747 E3.42313
G1 X74.937 Y55.747 E3.51258
G1 F2100.000 E2.11258
G1 Z0.900 F18000.000
G92 E0
G1 X75.307 Y74.979
G1 Z0.600
G1 F2100.000 E1.40000
G1 X77.421 Y76.515 F1980.000 E1.51721
G1 X78.228 Y79.000 E1.63442
G1 X77.421 Y81.485 E1.75163
G1 X75.307 Y83.021 E1.86884
G1 X72.694 Y83.021 E1.98605
G1 X70.692 Y81.567 E2.09705
G1 X70.606 Y81.567 E2.10089
G1 X69.772 Y79.000 E2.22195
G1 X70.580 Y76.515 E2.33916
G1 X72.694 Y74.979 E2.45637
G1 X75.187 Y74.979 E2.56820
G1 X75.057 Y75.747 F18000.000
G1 X76.767 Y76.989 F1980.000 E2.66303
G1 X77.421 Y79.000 E2.75786
G1 X76.767 Y81.011 E2.85268
G1 X75.057 Y82.253 E2.94751
G1 X72.943 Y82.253 E3.04234
G1 X71.233 Y81.011 E3.13717
G1 X71.164 Y80.799 E3.14716
G1 X71.164 Y80.799 E3.14716
G1 X70.579 Y79.000 E3.23200
G1 X71.233 Y76.989 E3.32683
G1 X72.943 Y75.747 E3.42166
G1 X74.937 Y75.747 E3.51111
G1 F2100.000 E2.11111
G1 Z0.900 F18000.000
G92 E0
G1 X65.168 Y87.832
G1 Z0.600
G1 F2100.000 E1.40000
G1 X65.168 Y47.842 F2970.000 E3.19382
G1 X45.168 Y47.842 E4.09096
G1 X45.168 Y47.832 E4.09140
G1 X35.168 Y47.832 E4.53997
G1 X35.168 Y30.188 E5.33144
G1 X45.168 Y30.188 E5.78001
G1 X45.168 Y30.178 E5.78046
G1 X65.168 Y30.178 E6.67759
G1 X65.168 Y30.168 E6.67804
G1 X122.832 Y30.168 E9.26468
G1 X122.832 Y38.516 E9.63916
