; generated by Slic3r 0.8.5-dev on 2012-09-09 at 18:48:45

; layer_height = 0.4
; perimeters = 2
; solid_layers = 3
; fill_density = 0.25
; perimeter_speed = 90
; infill_speed = 190
; travel_speed = 300
; scale = 1
; nozzle_diameter = 0.5
; filament_diameter = 2.89
; extrusion_multiplier = 1.00
; single wall width = 0.53mm
; first layer single wall width = 0.80mm

G28 ; home all axes
G90 ; use absolute coordinates
G21 ; set units to millimeters
G92 E0
M82 ; use absolute distances for extrusion
G1 Z0.600 F18000.000
G1 X18.380 Y45.270
G1 F2100.000 E1.40000
G1 X18.980 Y44.690 F2970.000 E1.43743
G1 X19.660 Y44.170 E1.47583
G1 X20.130 Y43.870 E1.50084
G1 X20.890 Y43.490 E1.53896
G1 X21.680 Y43.200 E1.57671
G1 X22.220 Y43.050 E1.60185
G1 X23.060 Y42.910 E1.64005
G1 X23.900 Y42.860 E1.67779
G1 X146.370 Y42.870 E7.17140
G1 X146.930 Y42.910 E7.19658
G1 X147.770 Y43.050 E7.23478
G1 X148.580 Y43.290 E7.27268
G1 X149.100 Y43.490 E7.29767
G1 X149.860 Y43.870 E7.33578
G1 X150.330 Y44.170 E7.36079
G1 X151.010 Y44.690 E7.39919
G1 X151.420 Y45.070 E7.42427
G1 X151.800 Y45.480 E7.44934
G1 X152.320 Y46.160 E7.48774
G1 X152.620 Y46.630 E7.51275
G1 X153.000 Y47.390 E7.55087
G1 X153.290 Y48.180 E7.58862
G1 X153.440 Y48.720 E7.61376
G1 X153.580 Y49.560 E7.65196
G1 X153.630 Y50.400 E7.68970
G1 X153.620 Y60.130 E8.12616
G1 X153.530 Y61.020 E8.16629
G1 X153.480 Y61.310 E8.17949
G1 X153.340 Y61.890 E8.20625
G1 X153.150 Y62.460 E8.23320
G1 X152.920 Y63.010 E8.25994
G1 X152.500 Y63.800 E8.30008
G1 X132.340 Y96.320 E10.01638
G1 X131.980 Y96.810 E10.04366
G1 X131.370 Y97.490 E10.08463
G1 X130.680 Y98.090 E10.12565
G1 X130.180 Y98.440 E10.15303
G1 X99.880 Y116.240 E11.72936
G1 X99.320 Y116.510 E11.75725
G1 X98.750 Y116.730 E11.78466
G1 X97.860 Y116.970 E11.82601
G1 X97.560 Y117.030 E11.83973
G1 X96.640 Y117.120 E11.88119
G1 X96.330 Y117.130 E11.89511
G1 X73.350 Y117.120 E12.92592
G1 X72.430 Y117.030 E12.96738
G1 X71.530 Y116.820 E13.00884
G1 X71.240 Y116.730 E13.02246
G1 X70.670 Y116.510 E13.04986
G1 X70.110 Y116.240 E13.07775
G1 X39.810 Y98.440 E14.65409
G1 X39.310 Y98.090 E14.68146
G1 X38.620 Y97.490 E14.72248
G1 X38.210 Y97.050 E14.74946
G1 X37.650 Y96.320 E14.79073
G1 X17.340 Y63.540 E16.52049
G1 X17.070 Y63.010 E16.54717
G1 X16.840 Y62.460 E16.57391
G1 X16.650 Y61.890 E16.60087
G1 X16.510 Y61.310 E16.62763
G1 X16.390 Y60.430 E16.66747
G1 X16.370 Y50.120 E17.12994
G1 X16.410 Y49.560 E17.15513
G1 X16.550 Y48.720 E17.19333
G1 X16.790 Y47.910 E17.23122
G1 X16.990 Y47.390 E17.25621
G1 X17.370 Y46.630 E17.29433
G1 X17.670 Y46.160 E17.31934
G1 X18.190 Y45.480 E17.35774
G1 X18.299 Y45.359 E17.36506
G1 X18.830 Y45.910 F18000.000
G1 X19.410 Y45.330 F2970.000 E17.40185
G1 X19.830 Y44.990 E17.42609
G1 X20.280 Y44.680 E17.45060
G1 X20.750 Y44.410 E17.47492
G1 X21.250 Y44.170 E17.49979
G1 X21.760 Y43.980 E17.52421
G1 X22.280 Y43.830 E17.54848
G1 X22.810 Y43.720 E17.57276
G1 X23.360 Y43.650 E17.59764
G1 X23.900 Y43.630 E17.62187
G1 X146.630 Y43.650 E23.12714
G1 X147.180 Y43.720 E23.15201
G1 X147.710 Y43.830 E23.17629
G1 X148.230 Y43.980 E23.20057
G1 X148.740 Y44.170 E23.22498
G1 X149.240 Y44.410 E23.24986
G1 X149.710 Y44.680 E23.27417
G1 X150.160 Y44.990 E23.29869
G1 X150.580 Y45.330 E23.32292
G1 X151.160 Y45.910 E23.35972
G1 X151.500 Y46.330 E23.38396
G1 X151.810 Y46.780 E23.40847
G1 X152.080 Y47.250 E23.43278
G1 X152.320 Y47.750 E23.45766
G1 X152.510 Y48.260 E23.48207
G1 X152.660 Y48.780 E23.50635
G1 X152.770 Y49.310 E23.53063
G1 X152.840 Y49.860 E23.55550
G1 X152.850 Y60.120 E24.01573
G1 X152.760 Y60.980 E24.05452
G1 X152.640 Y61.540 E24.08021
G1 X152.470 Y62.100 E24.10646
G1 X152.370 Y62.370 E24.11938
G1 X152.130 Y62.890 E24.14507
G1 X151.990 Y63.150 E24.15831
G1 X131.520 Y96.160 E25.90063
G1 X131.140 Y96.620 E25.92739
G1 X130.500 Y97.240 E25.96736
G1 X130.030 Y97.610 E25.99419
G1 X99.500 Y115.570 E27.58306
G1 X99.230 Y115.710 E27.59670
G1 X98.680 Y115.940 E27.62344
G1 X98.390 Y116.040 E27.63720
G1 X97.820 Y116.190 E27.66364
G1 X97.230 Y116.300 E27.69056
G1 X96.330 Y116.360 E27.73102
G1 X73.360 Y116.350 E28.76138
G1 X72.760 Y116.300 E28.78839
G1 X72.170 Y116.190 E28.81531
G1 X71.600 Y116.040 E28.84175
G1 X71.030 Y115.830 E28.86900
G1 X70.760 Y115.710 E28.88225
G1 X40.210 Y97.780 E30.47121
G1 X39.720 Y97.430 E30.49822
G1 X39.060 Y96.840 E30.53793
G1 X38.850 Y96.620 E30.55158
G1 X38.470 Y96.160 E30.57834
G1 X18.000 Y63.150 E32.32065
G1 X17.860 Y62.890 E32.33390
G1 X17.620 Y62.370 E32.35959
G1 X17.430 Y61.820 E32.38569
G1 X17.350 Y61.540 E32.39875
G1 X17.230 Y60.980 E32.42444
G1 X17.160 Y60.410 E32.45021
G1 X17.150 Y49.860 E32.92344
G1 X17.220 Y49.310 E32.94831
G1 X17.330 Y48.780 E32.97259
G1 X17.480 Y48.260 E32.99687
G1 X17.670 Y47.750 E33.02128
G1 X17.910 Y47.250 E33.04616
G1 X18.180 Y46.780 E33.07048
G1 X18.490 Y46.330 E33.09499
G1 X18.754 Y46.003 E33.11384
G1 F2100.000 E31.71384
G1 Z0.900 F18000.000
G92 E0
G1 X132.272 Y60.000
G1 Z0.600
G1 F2100.000 E1.40000
G1 X132.834 Y58.272 F1980.000 E1.48152
G1 X132.834 Y58.272 E1.48152
G1 X133.079 Y57.515 E1.51721
G1 X135.193 Y55.979 E1.63442
G1 X137.807 Y55.979 E1.75164
G1 X139.921 Y57.515 E1.86885
G1 X140.728 Y60.000 E1.98606
G1 X139.921 Y62.485 E2.10327
G1 X139.380 Y62.878 E2.13323
G1 X139.380 Y62.878 E2.13323
G1 X137.807 Y64.021 E2.22048
G1 X135.193 Y64.021 E2.33769
G1 X133.572 Y62.843 E2.42761
G1 X133.196 Y62.843 E2.44448
G1 X133.081 Y62.490 E2.46112
G1 X133.081 Y62.490 E2.46112
G1 X132.309 Y60.114 E2.57318
G1 X133.079 Y60.000 F18000.000
G1 X133.733 Y57.989 F1980.000 E2.66800
G1 X135.443 Y56.747 E2.76283
G1 X137.557 Y56.747 E2.85767
G1 X139.267 Y57.989 E2.95249
G1 X139.921 Y60.000 E3.04732
G1 X139.267 Y62.011 E3.14215
G1 X137.557 Y63.253 E3.23698
G1 X135.443 Y63.253 E3.33182
G1 X133.821 Y62.075 E3.42173
G1 X133.754 Y62.075 E3.42477
G1 X133.734 Y62.014 E3.42765
G1 X133.734 Y62.014 E3.42765
G1 X133.116 Y60.114 E3.51725
G1 F2100.000 E2.11725
G1 Z0.900 F18000.000
G92 E0
G1 X120.728 Y60.000
G1 Z0.600
G1 F2100.000 E1.40000
G1 X119.921 Y62.485 F1980.000 E1.51721
G1 X119.380 Y62.878 E1.54718
G1 X119.380 Y62.878 E1.54718
G1 X117.807 Y64.021 E1.63442
G1 X115.193 Y64.021 E1.75164
G1 X113.572 Y62.843 E1.84155
G1 X113.196 Y62.843 E1.85842
G1 X113.081 Y62.490 E1.87507
G1 X113.081 Y62.490 E1.87507
G1 X112.272 Y60.000 E1.99250
G1 X112.834 Y58.272 E2.07402
G1 X112.834 Y58.272 E2.07402
G1 X113.079 Y57.515 E2.10971
G1 X115.193 Y55.979 E2.22692
G1 X117.807 Y55.979 E2.34414
G1 X119.921 Y57.515 E2.46135
G1 X120.691 Y59.886 E2.57318
G1 X119.921 Y60.000 F18000.000
G1 X119.267 Y62.011 F1980.000 E2.66801
G1 X117.557 Y63.253 E2.76283
G1 X115.443 Y63.253 E2.85767
G1 X113.821 Y62.075 E2.94758
G1 X113.754 Y62.075 E2.95062
G1 X113.734 Y62.014 E2.95351
G1 X113.734 Y62.014 E2.95351
G1 X113.079 Y60.000 E3.04849
G1 X113.733 Y57.989 E3.14331
G1 X115.443 Y56.747 E3.23814
G1 X117.557 Y56.747 E3.33298
G1 X119.267 Y57.989 E3.42781
G1 X119.884 Y59.886 E3.51725
G1 F2100.000 E2.11725
G1 Z0.900 F18000.000
G92 E0
G1 X100.728 Y60.000
G1 Z0.600
G1 F2100.000 E1.40000
G1 X99.921 Y62.485 F1980.000 E1.51721
G1 X99.380 Y62.878 E1.54718
G1 X99.380 Y62.878 E1.54718
G1 X97.807 Y64.021 E1.63442
G1 X95.194 Y64.021 E1.75163
G1 X93.080 Y62.485 E1.86884
G1 X92.272 Y60.000 E1.98606
G1 X93.080 Y57.515 E2.10327
G1 X95.194 Y55.979 E2.22048
G1 X97.807 Y55.979 E2.33769
G1 X99.921 Y57.515 E2.45490
G1 X100.691 Y59.886 E2.56673
G1 X99.921 Y60.000 F18000.000
G1 X99.267 Y62.011 F1980.000 E2.66156
G1 X97.557 Y63.253 E2.75638
G1 X95.443 Y63.253 E2.85122
G1 X93.733 Y62.011 E2.94604
G1 X93.079 Y60.000 E3.04087
G1 X93.733 Y57.989 E3.13570
G1 X95.443 Y56.747 E3.23053
G1 X97.557 Y56.747 E3.32536
G1 X99.267 Y57.989 E3.42019
G1 X99.884 Y59.886 E3.50964
G1 F2100.000 E2.10964
G1 Z0.900 F18000.000
G92 E0
G1 X97.807 Y75.979
G1 Z0.600
G1 F2100.000 E1.40000
G1 X99.921 Y77.515 F1980.000 E1.51721
G1 X100.728 Y80.000 E1.63444
G1 X100.728 Y80.000 E1.63444
G1 X101.079 Y81.079 E1.68533
G1 X100.377 Y81.079 E1.71679
G1 X99.921 Y82.485 E1.78309
G1 X97.807 Y84.021 E1.90030
G1 X95.194 Y84.021 E2.01752
G1 X93.191 Y82.566 E2.12852
G1 X93.106 Y82.566 E2.13236
G1 X92.272 Y80.000 E2.25340
G1 X93.106 Y77.434 E2.37445
G1 X93.191 Y77.434 E2.37828
G1 X94.811 Y76.257 E2.46810
G1 X94.811 Y76.257 E2.46810
G1 X95.194 Y75.979 E2.48929
G1 X97.687 Y75.979 E2.60112
G1 X97.557 Y76.747 F18000.000
G1 X99.267 Y77.989 F1980.000 E2.69595
G1 X99.920 Y79.998 E2.79070
G1 X99.920 Y79.998 E2.79070
G1 X100.022 Y80.312 E2.80547
G1 X99.819 Y80.312 E2.81456
G1 X99.267 Y82.011 E2.89469
G1 X97.557 Y83.253 E2.98952
G1 X95.443 Y83.253 E3.08435
G1 X93.733 Y82.011 E3.17918
G1 X93.664 Y81.799 E3.18918
G1 X93.664 Y81.799 E3.18918
G1 X93.079 Y80.000 E3.27401
G1 X93.664 Y78.201 E3.35884
G1 X93.664 Y78.201 E3.35884
G1 X93.733 Y77.989 E3.36884
G1 X95.443 Y76.747 E3.46367
G1 X97.437 Y76.747 E3.55312
G1 F2100.000 E2.15312
G1 Z0.900 F18000.000
G92 E0
G1 X97.807 Y95.979
G1 Z0.600
G1 F2100.000 E1.40000
G1 X99.921 Y97.515 F1980.000 E1.51721
G1 X100.728 Y100.000 E1.63442
G1 X99.921 Y102.485 E1.75163
G1 X99.380 Y102.878 E1.78160
G1 X99.380 Y102.878 E1.78160
G1 X97.807 Y104.021 E1.86884
G1 X95.194 Y104.021 E1.98605
G1 X93.191 Y102.566 E2.09706
G1 X93.106 Y102.566 E2.10090
G1 X92.272 Y100.000 E2.22194
G1 X93.106 Y97.434 E2.34299
G1 X93.191 Y97.434 E2.34682
G1 X95.194 Y95.979 E2.45783
G1 X97.687 Y95.979 E2.56966
G1 X97.557 Y96.747 F18000.000
G1 X99.267 Y97.989 F1980.000 E2.66449
G1 X99.921 Y100.000 E2.75932
G1 X99.267 Y102.011 E2.85415
G1 X97.557 Y103.253 E2.94897
G1 X95.443 Y103.253 E3.04381
G1 X93.733 Y102.011 E3.13863
G1 X93.664 Y101.799 E3.14863
G1 X93.664 Y101.799 E3.14863
G1 X93.079 Y100.000 E3.23346
G1 X93.664 Y98.201 E3.31830
G1 X93.664 Y98.201 E3.31830
G1 X93.733 Y97.989 E3.32830
G1 X95.443 Y96.747 E3.42312
G1 X97.437 Y96.747 E3.51257
G1 F2100.000 E2.11257
G1 Z0.900 F18000.000
G92 E0
G1 X87.668 Y108.832
G1 Z0.600
G1 F2100.000 E1.40000
G1 X87.668 Y51.168 F2970.000 E3.98664
G1 X145.332 Y51.168 E6.57327
G1 X145.332 Y59.516 E6.94776
G1 X125.332 Y79.516 E8.21650
G1 X125.332 Y91.332 E8.74652
G1 X113.516 Y91.332 E9.27654
G1 X96.016 Y108.832 E10.38669
G1 X87.788 Y108.832 E10.75579
G1 F2100.000 E9.35579
G1 Z0.900 F18000.000
G92 E0
G1 X86.900 Y109.600
G1 Z0.600
G1 F2100.000 E1.40000
G1 X86.900 Y50.400 F2970.000 E4.05552
G1 X146.100 Y50.400 E6.71104
G1 X146.100 Y59.834 E7.13423
G1 X126.100 Y79.834 E8.40297
G1 X126.100 Y92.100 E8.95317
G1 X113.834 Y92.100 E9.50337
G1 X96.334 Y109.600 E10.61351
G1 X87.020 Y109.600 E11.03132
G1 F2100.000 E9.63132
G1 Z0.900 F18000.000
G92 E0
G1 X36.921 Y62.485
G1 Z0.600
G1 F2100.000 E1.40000
G1 X34.807 Y64.021 F1980.000 E1.51721
G1 X32.193 Y64.021 E1.63443
G1 X30.079 Y62.485 E1.75164
G1 X29.272 Y60.000 E1.86885
G1 X30.079 Y57.515 E1.98606
G1 X32.193 Y55.979 E2.10327
G1 X34.807 Y55.979 E2.22048
G1 X36.921 Y57.515 E2.33769
G1 X37.732 Y60.014 E2.45555
G1 X37.732 Y60.014 E2.45555
G1 X37.738 Y60.032 E2.45642
G1 X37.717 Y60.032 E2.45736
G1 X36.958 Y62.371 E2.56767
G1 X36.267 Y62.011 F18000.000
G1 X34.557 Y63.253 F1980.000 E2.66250
G1 X32.443 Y63.253 E2.75733
G1 X30.733 Y62.011 E2.85216
G1 X30.079 Y60.000 E2.94699
G1 X30.733 Y57.989 E3.04182
G1 X32.443 Y56.747 E3.13665
G1 X34.557 Y56.747 E3.23148
G1 X36.267 Y57.989 E3.32631
G1 X36.682 Y59.264 E3.38644
G1 X36.682 Y59.264 E3.38644
G1 X36.921 Y60.000 E3.42114
G1 X36.304 Y61.896 E3.51058
G1 F2100.000 E2.11058
G1 Z0.900 F18000.000
G92 E0
G1 X49.272 Y60.000
G1 Z0.600
G1 F2100.000 E1.40000
G1 X49.437 Y59.493 F1980.000 E1.42392
G1 X49.437 Y59.493 E1.42392
G1 X50.079 Y57.515 E1.51721
G1 X52.193 Y55.979 E1.63442
G1 X54.807 Y55.979 E1.75163
G1 X56.921 Y57.515 E1.86885
G1 X57.738 Y60.032 E1.98757
G1 X57.717 Y60.032 E1.98851
G1 X57.582 Y60.449 E2.00818
G1 X57.582 Y60.449 E2.00818
G1 X56.921 Y62.485 E2.10420
G1 X54.807 Y64.021 E2.22142
G1 X52.193 Y64.021 E2.33863
G1 X50.079 Y62.485 E2.45584
G1 X49.309 Y60.114 E2.56767
G1 X50.079 Y60.000 F18000.000
G1 X50.494 Y58.725 F1980.000 E2.62780
G1 X50.494 Y58.725 E2.62780
G1 X50.733 Y57.989 E2.66250
G1 X52.443 Y56.747 E2.75733
G1 X54.557 Y56.747 E2.85216
G1 X56.267 Y57.989 E2.94699
G1 X56.682 Y59.264 E3.00712
G1 X56.682 Y59.264 E3.00712
G1 X56.921 Y60.000 E3.04182
G1 X56.267 Y62.011 E3.13665
G1 X54.557 Y63.253 E3.23147
G1 X52.443 Y63.253 E3.32631
G1 X50.733 Y62.011 E3.42114
G1 X50.116 Y60.114 E3.51058
G1 F2100.000 E2.11058
G1 Z0.900 F18000.000
G92 E0
G1 X69.272 Y60.000
G1 Z0.600
G1 F2100.000 E1.40000
G1 X69.437 Y59.493 F1980.000 E1.42392
G1 X69.437 Y59.493 E1.42392
G1 X70.079 Y57.515 E1.51721
G1 X72.193 Y55.979 E1.63442
G1 X74.807 Y55.979 E1.75163
G1 X76.921 Y57.515 E1.86885
G1 X77.738 Y60.032 E1.98757
G1 X77.717 Y60.032 E1.98851
G1 X77.582 Y60.449 E2.00818
G1 X77.582 Y60.449 E2.00818
G1 X76.921 Y62.485 E2.10420
G1 X74.807 Y64.021 E2.22142
G1 X72.193 Y64.021 E2.33863
G1 X70.079 Y62.485 E2.45584
G1 X69.309 Y60.114 E2.56767
G1 X70.079 Y60.000 F18000.000
G1 X70.494 Y58.725 F1980.000 E2.62780
G1 X70.494 Y58.725 E2.62780
G1 X70.733 Y57.989 E2.66250
G1 X72.443 Y56.747 E2.75733
G1 X74.557 Y56.747 E2.85216
G1 X76.267 Y57.989 E2.94699
G1 X76.682 Y59.264 E3.00712
G1 X76.682 Y59.264 E3.00712
G1 X76.921 Y60.000 E3.04182
G1 X76.267 Y62.011 E3.13665
G1 X74.557 Y63.253 E3.23147
G1 X72.443 Y63.253 E3.32631
G1 X70.733 Y62.011 E3.42114
G1 X70.116 Y60.114 E3.51058
G1 F2100.000 E2.11058
G1 Z0.900 F18000.000
G92 E0
G1 X72.193 Y75.979
G1 Z0.600
G1 F2100.000 E1.40000
G1 X74.807 Y75.979 F1980.000 E1.51721
G1 X76.921 Y77.515 E1.63442
G1 X77.410 Y79.020 E1.70542
G1 X77.410 Y79.020 E1.70542
G1 X77.728 Y80.000 E1.75164
G1 X76.921 Y82.485 E1.86885
G1 X74.807 Y84.021 E1.98606
G1 X72.193 Y84.021 E2.10327
G1 X70.079 Y82.485 E2.22048
G1 X69.272 Y80.000 E2.33769
G1 X70.079 Y77.515 E2.45490
G1 X72.096 Y76.050 E2.56673
G1 X72.443 Y76.747 F18000.000
G1 X74.557 Y76.747 F1980.000 E2.66156
G1 X76.267 Y77.989 E2.75639
G1 X76.852 Y79.788 E2.84123
G1 X76.852 Y79.788 E2.84123
G1 X76.921 Y80.000 E2.85122
G1 X76.267 Y82.011 E2.94605
G1 X74.557 Y83.253 E3.04088
G1 X72.443 Y83.253 E3.13572
G1 X70.733 Y82.011 E3.23054
G1 X70.079 Y80.000 E3.32537
G1 X70.733 Y77.989 E3.42020
G1 X72.346 Y76.817 E3.50965
G1 F2100.000 E2.10965
G1 Z0.900 F18000.000
G92 E0
G1 X72.193 Y95.979
G1 Z0.600
G1 F2100.000 E1.40000
G1 X74.807 Y95.979 F1980.000 E1.51721
G1 X76.921 Y97.515 E1.63443
G1 X77.410 Y99.020 E1.70542
G1 X77.410 Y99.020 E1.70542
G1 X77.728 Y100.000 E1.75164
G1 X76.921 Y102.485 E1.86885
G1 X74.807 Y104.021 E1.98606
G1 X72.193 Y104.021 E2.10327
G1 X70.572 Y102.843 E2.19319
G1 X70.196 Y102.843 E2.21006
G1 X70.079 Y102.485 E2.22695
G1 X70.079 Y102.485 E2.22695
G1 X69.272 Y100.000 E2.34414
G1 X70.093 Y97.472 E2.46337
G1 X70.093 Y97.472 E2.46338
G1 X70.196 Y97.157 E2.47822
G1 X70.572 Y97.157 E2.49509
G1 X72.096 Y96.050 E2.57962
G1 X72.443 Y96.747 F18000.000
G1 X74.557 Y96.747 F1980.000 E2.67445
G1 X76.267 Y97.989 E2.76928
G1 X76.852 Y99.788 E2.85411
G1 X76.852 Y99.788 E2.85411
G1 X76.921 Y100.000 E2.86411
G1 X76.267 Y102.011 E2.95894
G1 X74.557 Y103.253 E3.05377
G1 X72.443 Y103.253 E3.14860
G1 X70.821 Y102.075 E3.23852
G1 X70.754 Y102.075 E3.24156
G1 X70.734 Y102.014 E3.24444
G1 X70.734 Y102.014 E3.24444
G1 X70.079 Y100.000 E3.33942
G1 X70.734 Y97.986 E3.43440
G1 X70.734 Y97.986 E3.43440
G1 X70.754 Y97.925 E3.43729
G1 X70.821 Y97.925 E3.44033
G1 X72.346 Y96.817 E3.52486
G1 F2100.000 E2.12486
G1 Z0.900 F18000.000
G92 E0
G1 X44.668 Y91.332
G1 Z0.600
G1 F2100.000 E1.40000
G1 X44.668 Y79.516 F2970.000 E1.93002
G1 X24.668 Y59.516 E3.19876
G1 X24.668 Y51.168 E3.57325
G1 X82.332 Y51.168 E6.15988
G1 X82.332 Y108.832 E8.74652
G1 X73.984 Y108.832 E9.12100
G1 X56.484 Y91.332 E10.23115
G1 X44.788 Y91.332 E10.75579
G1 F2100.000 E9.35579
G1 Z0.900 F18000.000
G92 E0
G1 X43.900 Y92.100
G1 Z0.600
G1 F2100.000 E1.40000
G1 X43.900 Y79.834 F2970.000 E1.95020
G1 X23.900 Y59.834 E3.21894
G1 X23.900 Y50.400 E3.64213
G1 X83.100 Y50.400 E6.29765
G1 X83.100 Y109.600 E8.95317
G1 X73.666 Y109.600 E9.37636
G1 X56.166 Y92.100 E10.48651
G1 X44.020 Y92.100 E11.03132
G1 F2100.000 E9.63132
G1 Z0.900 F18000.000
G92 E0
G1 X45.619 Y90.827
G1 Z0.600
G1 F2100.000 E1.40000
G1 X45.252 Y90.302 F2970.000 E1.42891
G1 X45.251 Y88.955 E1.48964
