; generated by Slic3r 0.8.5-dev on 2012-09-17 at 13:02:04

; layer_height = 0.3
; perimeters = 2
; solid_layers = 3
; fill_density = 0.35
; perimeter_speed = 90
; infill_speed = 190
; travel_speed = 200
; scale = 1
; nozzle_diameter = 0.5
; filament_diameter = 2.89
; extrusion_multiplier = 0.98
; single wall width = 0.70mm
; first layer single wall width = 0.80mm

G28 ; home all axes
G90 ; use absolute coordinates
G21 ; set units to millimeters
G92 E0
M82 ; use absolute distances for extrusion
G1 Z0.500 F12000.000
G1 X60.600 Y53.570
G1 F2100.000 E1.00000
G1 X61.340 Y53.030 F2970.000 E1.03020
G1 X61.600 Y52.870 E1.04027
G1 X62.420 Y52.460 E1.07049
G1 X104.710 Y34.360 E2.58712
G1 X105.280 Y34.160 E2.60704
G1 X106.180 Y33.960 E2.63743
G1 X107.090 Y33.870 E2.66758
G1 X107.390 Y33.860 E2.67748
G1 X119.870 Y33.870 E3.08894
G1 X120.430 Y33.910 E3.10745
G1 X121.270 Y34.050 E3.13553
G1 X122.080 Y34.290 E3.16338
G1 X122.600 Y34.490 E3.18175
G1 X123.360 Y34.870 E3.20976
G1 X123.830 Y35.170 E3.22815
G1 X124.510 Y35.690 E3.25637
G1 X124.920 Y36.070 E3.27480
G1 X125.300 Y36.480 E3.29323
G1 X125.820 Y37.160 E3.32145
G1 X126.120 Y37.630 E3.33984
G1 X126.500 Y38.390 E3.36785
G1 X126.790 Y39.180 E3.39560
G1 X126.940 Y39.720 E3.41407
G1 X127.080 Y40.560 E3.44215
G1 X127.130 Y41.400 E3.46989
G1 X127.120 Y118.870 E6.02406
G1 X127.080 Y119.430 E6.04257
G1 X126.940 Y120.270 E6.07064
G1 X126.700 Y121.080 E6.09850
G1 X126.500 Y121.600 E6.11687
G1 X126.120 Y122.360 E6.14488
G1 X125.820 Y122.830 E6.16326
G1 X125.300 Y123.510 E6.19149
G1 X124.920 Y123.920 E6.20992
G1 X124.510 Y124.300 E6.22835
G1 X123.830 Y124.820 E6.25657
G1 X123.360 Y125.120 E6.27495
G1 X122.600 Y125.500 E6.30297
G1 X121.810 Y125.790 E6.33071
G1 X121.270 Y125.940 E6.34919
G1 X120.430 Y126.080 E6.37727
G1 X119.590 Y126.130 E6.40501
G1 X90.090 Y126.120 E7.37762
G1 X89.200 Y126.030 E7.40711
G1 X48.360 Y117.850 E8.78034
G1 X47.820 Y117.670 E8.79910
G1 X47.020 Y117.330 E8.82776
G1 X46.280 Y116.900 E8.85598
G1 X45.580 Y116.390 E8.88453
G1 X44.950 Y115.800 E8.91299
G1 X44.570 Y115.370 E8.93191
G1 X44.390 Y115.140 E8.94154
G1 X44.060 Y114.670 E8.96047
G1 X43.770 Y114.180 E8.97925
G1 X43.300 Y113.130 E9.01718
G1 X43.130 Y112.580 E9.03616
G1 X42.950 Y111.740 E9.06448
G1 X42.910 Y111.450 E9.07413
G1 X42.860 Y110.590 E9.10253
G1 X42.870 Y88.100 E9.84402
G1 X42.920 Y87.500 E9.86387
G1 X43.010 Y86.910 E9.88355
G1 X43.150 Y86.330 E9.90322
G1 X43.340 Y85.760 E9.92303
G1 X43.570 Y85.210 E9.94268
G1 X58.840 Y55.660 E11.03933
G1 X59.160 Y55.140 E11.05946
G1 X59.530 Y54.650 E11.07970
G1 X59.930 Y54.190 E11.09980
G1 X60.509 Y53.649 E11.12594
G1 X61.000 Y54.240 F12000.000
G1 X61.460 Y53.880 F2970.000 E11.14520
G1 X61.950 Y53.560 E11.16450
G1 X62.460 Y53.290 E11.18352
G1 X105.290 Y34.960 E12.71950
G1 X105.880 Y34.800 E12.73965
G1 X106.480 Y34.690 E12.75977
G1 X107.390 Y34.630 E12.78983
G1 X120.130 Y34.650 E13.20987
G1 X120.680 Y34.720 E13.22815
G1 X121.210 Y34.830 E13.24599
G1 X121.730 Y34.980 E13.26384
G1 X122.240 Y35.170 E13.28178
G1 X122.740 Y35.410 E13.30007
G1 X123.210 Y35.680 E13.31794
G1 X123.660 Y35.990 E13.33595
G1 X124.080 Y36.330 E13.35377
G1 X124.660 Y36.910 E13.38081
G1 X125.000 Y37.330 E13.39863
G1 X125.310 Y37.780 E13.41664
G1 X125.580 Y38.250 E13.43451
G1 X125.820 Y38.750 E13.45280
G1 X126.010 Y39.260 E13.47074
G1 X126.160 Y39.780 E13.48859
G1 X126.270 Y40.310 E13.50643
G1 X126.340 Y40.860 E13.52471
G1 X126.340 Y119.130 E16.10525
G1 X126.270 Y119.680 E16.12353
G1 X126.160 Y120.210 E16.14138
G1 X126.010 Y120.730 E16.15922
G1 X125.820 Y121.240 E16.17716
G1 X125.580 Y121.740 E16.19545
G1 X125.310 Y122.210 E16.21332
G1 X125.000 Y122.660 E16.23134
G1 X124.660 Y123.080 E16.24915
G1 X124.080 Y123.660 E16.27619
G1 X123.660 Y124.000 E16.29401
G1 X123.210 Y124.310 E16.31203
G1 X122.740 Y124.580 E16.32990
G1 X122.240 Y124.820 E16.34818
G1 X121.730 Y125.010 E16.36613
G1 X121.210 Y125.160 E16.38397
G1 X120.680 Y125.270 E16.40182
G1 X120.130 Y125.340 E16.42010
G1 X119.590 Y125.360 E16.43791
G1 X89.860 Y125.340 E17.41810
G1 X89.060 Y125.230 E17.44472
G1 X48.810 Y117.170 E18.79810
G1 X48.280 Y117.020 E18.81626
G1 X47.770 Y116.830 E18.83420
G1 X47.030 Y116.460 E18.86148
G1 X46.570 Y116.170 E18.87941
G1 X45.920 Y115.670 E18.90645
G1 X45.340 Y115.090 E18.93349
G1 X45.000 Y114.670 E18.95131
G1 X44.540 Y113.980 E18.97865
G1 X44.290 Y113.500 E18.99649
G1 X44.070 Y113.000 E19.01450
G1 X43.900 Y112.480 E19.03254
G1 X43.770 Y111.950 E19.05053
G1 X43.680 Y111.410 E19.06858
G1 X43.650 Y111.140 E19.07753
G1 X43.640 Y88.110 E19.83683
G1 X43.690 Y87.520 E19.85635
G1 X43.730 Y87.230 E19.86600
G1 X43.860 Y86.660 E19.88528
G1 X43.940 Y86.380 E19.89488
G1 X44.140 Y85.830 E19.91417
G1 X59.520 Y56.030 E21.01980
G1 X59.830 Y55.530 E21.03920
G1 X60.180 Y55.070 E21.05826
G1 X60.780 Y54.430 E21.08718
G1 X60.909 Y54.318 E21.09281
G1 F2100.000 E20.09281
G1 Z0.800 F12000.000
G92 E0
G1 X96.227 Y94.084
G1 Z0.500
G1 F2100.000 E1.00000
G1 X96.281 Y94.056 F2970.000 E1.00202
G1 X96.281 Y94.056 E1.00202
G1 X98.020 Y93.143 E1.06678
G1 X99.987 Y92.658 E1.13357
G1 X102.012 Y92.658 E1.20034
G1 X103.979 Y93.143 E1.26714
G1 X105.774 Y94.085 E1.33394
G1 X107.289 Y95.428 E1.40071
G1 X108.440 Y97.095 E1.46750
G1 X109.159 Y98.989 E1.53429
G1 X109.403 Y101.000 E1.60108
G1 X109.159 Y103.011 E1.66788
G1 X108.440 Y104.905 E1.73466
G1 X107.289 Y106.572 E1.80146
G1 X105.774 Y107.915 E1.86823
G1 X103.980 Y108.857 E1.93503
G1 X102.013 Y109.342 E2.00180
G1 X99.987 Y109.342 E2.06860
G1 X98.080 Y108.871 E2.13337
G1 X98.080 Y108.871 E2.13337
G1 X98.020 Y108.857 E2.13538
G1 X96.227 Y107.916 E2.20217
G1 X94.710 Y106.572 E2.26896
G1 X93.560 Y104.905 E2.33575
G1 X92.841 Y103.011 E2.40253
G1 X92.604 Y101.061 E2.46731
G1 X92.604 Y101.061 E2.46731
G1 X92.597 Y101.000 E2.46932
G1 X92.604 Y100.940 E2.47133
G1 X92.604 Y100.940 E2.47133
G1 X92.841 Y98.989 E2.53611
G1 X93.560 Y97.095 E2.60289
G1 X94.710 Y95.428 E2.66968
G1 X96.137 Y94.164 E2.73252
G1 F2100.000 E1.73252
G1 Z0.800 F12000.000
G92 E0
G1 X95.000 Y110.567
G1 Z0.500
G1 F2100.000 E1.00000
G1 X97.074 Y111.426 F1980.000 E1.07401
G1 X97.933 Y113.500 E1.14802
G1 X97.074 Y115.574 E1.22203
G1 X95.000 Y116.433 E1.29604
G1 X92.926 Y115.574 E1.37005
G1 X92.067 Y113.500 E1.44406
G1 X92.926 Y111.426 E1.51807
G1 X94.889 Y110.613 E1.58813
G1 F2100.000 E0.58813
G1 Z0.800 F12000.000
G92 E0
G1 X91.665 Y114.536
G1 Z0.500
G1 F2100.000 E1.00000
G1 X92.338 Y116.162 F1980.000 E1.05799
G1 X95.171 Y117.335 E1.15907
G1 X95.072 Y117.832 E1.17579
G1 X91.168 Y117.832 E1.30450
G1 X91.168 Y114.635 E1.40990
G1 X91.548 Y114.560 E1.42267
G1 F2100.000 E0.42267
G1 Z0.800 F12000.000
G92 E0
G1 X91.168 Y112.365
G1 Z0.500
G1 F2100.000 E1.00000
G1 X91.168 Y101.224 F2970.000 E1.36729
G1 X91.846 Y101.183 E1.38969
G1 X91.924 Y101.828 E1.41111
G1 X91.924 Y101.828 E1.41112
G1 X92.090 Y103.196 E1.45655
G1 X92.875 Y105.264 E1.52946
G1 X94.131 Y107.085 E1.60241
G1 X95.787 Y108.552 E1.67535
G1 X97.746 Y109.580 E1.74828
G1 X98.847 Y109.852 E1.78568
G1 X98.847 Y109.852 E1.78569
G1 X99.894 Y110.110 E1.82122
G1 X102.107 Y110.110 E1.89419
G1 X104.253 Y109.580 E1.96708
G1 X106.213 Y108.552 E2.04004
G1 X107.868 Y107.086 E2.11294
G1 X109.125 Y105.265 E2.18588
G1 X109.909 Y103.197 E2.25881
G1 X110.176 Y101.000 E2.33176
G1 X109.909 Y98.803 E2.40472
G1 X109.125 Y96.735 E2.47765
G1 X107.868 Y94.914 E2.55059
G1 X106.213 Y93.448 E2.62348
G1 X104.253 Y92.420 E2.69646
G1 X102.105 Y91.890 E2.76942
G1 X99.894 Y91.890 E2.84231
G1 X97.745 Y92.420 E2.91526
G1 X95.513 Y93.592 E2.99839
G1 X95.513 Y93.691 E3.00165
G1 X94.131 Y94.915 E3.06251
G1 X92.875 Y96.736 E3.13546
G1 X92.090 Y98.804 E3.20837
G1 X91.924 Y100.172 E3.25380
G1 X91.924 Y100.172 E3.25382
G1 X91.846 Y100.815 E3.27517
G1 X91.168 Y100.774 E3.29757
G1 X91.168 Y89.168 E3.68022
G1 X108.168 Y89.168 E4.24071
G1 X108.168 Y42.168 E5.79028
G1 X118.832 Y42.168 E6.14188
G1 X118.832 Y117.832 E8.63652
G1 X94.928 Y117.832 E9.42462
G1 X94.829 Y117.335 E9.44134
G1 X97.662 Y116.162 E9.54242
G1 X98.764 Y113.500 E9.63740
G1 X97.662 Y110.838 E9.73238
G1 X95.000 Y109.736 E9.82736
G1 X92.338 Y110.838 E9.92235
G1 X91.665 Y112.464 E9.98034
G1 X91.286 Y112.388 E9.99311
G1 F2100.000 E8.99311
G1 Z0.800 F12000.000
G92 E0
G1 X90.400 Y118.600
G1 Z0.500
G1 F2100.000 E1.00000
G1 X90.400 Y88.400 F2970.000 E1.99568
G1 X107.400 Y88.400 E2.55617
G1 X107.400 Y41.400 E4.10575
G1 X119.600 Y41.400 E4.50798
G1 X119.600 Y118.600 E7.05324
G1 X90.520 Y118.600 E8.01200
G1 F2100.000 E7.01200
G1 Z0.800 F12000.000
G92 E0
G1 X68.440 Y104.905
G1 Z0.500
G1 F2100.000 E1.00000
G1 X67.289 Y106.572 F2970.000 E1.06679
G1 X65.773 Y107.916 E1.13357
G1 X63.980 Y108.857 E1.20034
G1 X62.013 Y109.342 E1.26713
G1 X59.987 Y109.342 E1.33393
G1 X58.080 Y108.871 E1.39870
G1 X58.080 Y108.871 E1.39870
G1 X58.020 Y108.857 E1.40072
G1 X56.227 Y107.916 E1.46750
G1 X54.710 Y106.572 E1.53429
G1 X53.560 Y104.905 E1.60108
G1 X52.841 Y103.011 E1.66787
G1 X52.597 Y101.000 E1.73465
G1 X52.841 Y98.989 E1.80144
G1 X53.560 Y97.095 E1.86823
G1 X54.710 Y95.428 E1.93502
G1 X56.227 Y94.084 E2.00182
G1 X58.020 Y93.143 E2.06859
G1 X58.080 Y93.129 E2.07061
G1 X58.080 Y93.129 E2.07061
G1 X59.987 Y92.658 E2.13538
G1 X62.012 Y92.658 E2.20215
G1 X63.980 Y93.143 E2.26896
G1 X64.620 Y93.480 E2.29279
G1 X64.620 Y93.479 E2.29281
G1 X65.773 Y94.084 E2.33577
G1 X67.289 Y95.428 E2.40255
G1 X68.440 Y97.095 E2.46934
G1 X69.159 Y98.989 E2.53612
G1 X69.403 Y101.000 E2.60292
G1 X69.159 Y103.011 E2.66971
G1 X68.483 Y104.793 E2.73254
G1 F2100.000 E1.73254
G1 Z0.800 F12000.000
G92 E0
G1 X57.380 Y109.388
G1 Z0.500
G1 F2100.000 E1.00000
G1 X57.270 Y109.832 F1980.000 E1.01509
G1 X51.168 Y109.832 E1.21629
G1 X51.168 Y101.223 E1.50014
G1 X51.846 Y101.182 E1.52253
G1 X52.090 Y103.196 E1.58942
G1 X52.875 Y105.264 E1.66236
G1 X52.962 Y105.391 E1.66744
G1 X52.962 Y105.391 E1.66744
G1 X54.131 Y107.085 E1.73529
G1 X55.788 Y108.553 E1.80825
G1 X57.274 Y109.332 E1.86358
G1 F2100.000 E0.86358
G1 Z0.800 F12000.000
G92 E0
G1 X51.168 Y100.777
G1 Z0.500
G1 F2100.000 E1.00000
G1 X51.168 Y89.168 F2970.000 E1.38276
G1 X66.168 Y89.168 E1.87730
G1 X66.168 Y60.168 E2.83342
G1 X78.832 Y60.168 E3.25097
G1 X78.832 Y109.832 E4.88839
G1 X64.730 Y109.832 E5.35334
G1 X64.620 Y109.388 E5.36843
G1 X66.213 Y108.552 E5.42773
G1 X67.868 Y107.086 E5.50064
G1 X69.125 Y105.265 E5.57359
G1 X69.909 Y103.197 E5.64651
G1 X70.176 Y101.000 E5.71947
G1 X69.909 Y98.803 E5.79243
G1 X69.125 Y96.735 E5.86535
G1 X67.868 Y94.914 E5.93830
G1 X66.213 Y93.448 E6.01122
G1 X64.254 Y92.420 E6.08413
G1 X64.254 Y92.420 E6.08415
G1 X63.852 Y92.209 E6.09912
G1 X63.852 Y92.321 E6.10280
G1 X62.105 Y91.890 E6.16213
G1 X59.894 Y91.890 E6.23502
G1 X57.312 Y92.527 E6.32270
G1 X57.312 Y92.648 E6.32668
G1 X55.788 Y93.447 E6.38343
G1 X54.131 Y94.915 E6.45639
G1 X52.962 Y96.609 E6.52424
G1 X52.962 Y96.609 E6.52424
G1 X52.875 Y96.736 E6.52932
G1 X52.090 Y98.804 E6.60226
G1 X51.846 Y100.818 E6.66915
G1 X51.288 Y100.784 E6.68759
G1 F2100.000 E5.68759
G1 Z0.800 F12000.000
G92 E0
G1 X50.400 Y110.600
G1 Z0.500
G1 F2100.000 E1.00000
G1 X50.400 Y88.400 F2970.000 E1.73193
G1 X65.400 Y88.400 E2.22647
G1 X65.400 Y59.400 E3.18259
G1 X79.600 Y59.400 E3.65076
G1 X79.600 Y110.600 E5.33881
G1 X50.520 Y110.600 E6.29757
G1 F2100.000 E5.29757
G1 Z0.800 F12000.000
G92 E0
G1 X91.709 Y95.341
G1 Z0.500
G1 F2100.000 E1.00000
G1 X92.643 Y96.274 F2970.000 E1.04386
G1 X93.089 Y95.627 F12000.000
G1 X91.709 Y94.246 F2970.000 E1.10871
G1 X91.709 Y93.153 E1.14503
G1 X93.536 Y94.980 E1.23088
G1 X94.044 Y94.393 F12000.000
G1 X91.709 Y92.059 F2970.000 E1.34059
G1 X91.709 Y90.965 E1.37691
G1 X94.624 Y93.880 E1.51386
G1 X95.117 Y93.278 F12000.000
G1 X91.709 Y89.871 F2970.000 E1.67397
G1 X92.641 Y89.710 E1.70540
G1 X95.834 Y92.902 E1.85541
G1 X96.551 Y92.525 F12000.000
G1 X93.735 Y89.709 F2970.000 E1.98774
G1 X94.829 Y89.710 E2.02408
G1 X97.268 Y92.149 E2.13871
G1 X98.050 Y91.836 F12000.000
G1 X95.923 Y89.709 F2970.000 E2.23868
G1 X97.017 Y89.710 E2.27503
G1 X98.927 Y91.620 E2.36480
G1 X99.806 Y91.404 E2.39485
G1 X98.111 Y89.709 E2.47449
G1 X99.204 Y89.710 E2.51083
G1 X100.844 Y91.349 E2.58788
G1 X101.939 Y91.349 E2.62425
G1 X100.298 Y89.709 E2.70133
G1 X101.392 Y89.710 E2.73768
G1 X103.231 Y91.548 E2.82406
G1 X104.682 Y91.905 E2.87373
G1 X102.486 Y89.709 E2.97692
G1 X103.580 Y89.710 E3.01327
G1 X107.143 Y93.273 E3.18069
G1 F2100.000 E2.18069
G1 Z0.800 F12000.000
G92 E0
G1 X108.609 Y94.738
G1 Z0.500
G1 F2100.000 E1.00000
G1 X118.291 Y104.420 F2970.000 E1.45491
G1 X118.291 Y105.513 E1.49123
G1 X109.985 Y97.208 E1.88149
G1 X110.484 Y98.801 E1.93695
G1 X118.291 Y106.608 E2.30378
G1 X118.291 Y107.701 E2.34010
G1 X110.635 Y100.045 E2.69983
G1 X110.674 Y101.179 E2.73751
G1 X118.291 Y108.796 E3.09540
G1 X118.291 Y109.889 E3.13172
G1 X110.556 Y102.154 E3.49517
G1 X110.437 Y103.130 E3.52783
G1 X118.291 Y110.984 E3.89685
G1 X118.291 Y112.077 E3.93317
G1 X110.141 Y103.927 E4.31609
G1 X109.840 Y104.721 E4.34428
G1 X118.291 Y113.171 E4.74135
G1 X118.291 Y114.265 E4.77767
G1 X109.518 Y105.492 E5.18986
G1 X109.071 Y106.140 F12000.000
G1 X118.291 Y115.359 F2970.000 E5.62304
G1 X118.291 Y116.452 E5.65936
G1 X108.625 Y106.786 E6.11354
G1 X108.165 Y107.421 F12000.000
G1 X118.035 Y117.291 F2970.000 E6.57729
G1 X116.942 Y117.291 E6.61361
G1 X107.586 Y107.935 E7.05320
G1 X107.005 Y108.449 F12000.000
G1 X115.847 Y117.291 F2970.000 E7.46864
G1 X114.754 Y117.291 E7.50497
G1 X106.425 Y108.963 E7.89628
G1 X105.708 Y109.340 F12000.000
G1 X113.659 Y117.291 F2970.000 E8.26990
G1 X112.566 Y117.291 E8.30622
G1 X104.990 Y109.715 E8.66218
G1 X104.266 Y110.086 F12000.000
G1 X111.471 Y117.291 F2970.000 E9.00074
G1 X110.378 Y117.291 E9.03706
G1 X103.389 Y110.302 E9.36546
G1 X102.512 Y110.519 E9.39549
G1 X109.284 Y117.291 E9.71368
G1 X108.190 Y117.291 E9.75000
G1 X101.551 Y110.651 E10.06198
G1 X100.456 Y110.651 E10.09835
G1 X107.096 Y117.291 E10.41033
G1 X106.003 Y117.291 E10.44665
G1 X99.294 Y110.582 E10.76188
G1 X98.292 Y110.675 E10.79532
G1 X104.908 Y117.291 E11.10620
G1 X103.815 Y117.291 E11.14252
G1 X99.066 Y112.542 E11.36566
G1 F2100.000 E10.36566
G1 Z0.800 F12000.000
G92 E0
G1 X99.173 Y113.744
G1 Z0.500
G1 F2100.000 E1.00000
G1 X102.720 Y117.291 F2970.000 E1.16665
G1 X101.627 Y117.291 E1.20298
G1 X98.854 Y114.518 E1.33328
G1 X98.533 Y115.291 E1.36111
G1 X100.532 Y117.291 E1.45507
G1 X99.439 Y117.291 E1.49139
G1 X98.213 Y116.065 E1.54900
G1 X97.892 Y116.838 E1.57683
G1 X98.345 Y117.291 E1.59809
G1 F2100.000 E0.59809
G1 Z0.800 F12000.000
G92 E0
G1 X104.674 Y89.709
G1 Z0.500
G1 F2100.000 E1.00000
G1 X118.291 Y103.326 F2970.000 E1.63981
G1 X118.291 Y102.232 E1.67613
G1 X105.768 Y89.710 E2.26453
G1 X106.862 Y89.709 E2.30088
G1 X118.291 Y101.138 E2.83789
G1 X118.291 Y100.045 E2.87421
G1 X107.956 Y89.710 E3.35982
G1 X108.709 Y89.369 F12000.000
G1 X118.291 Y98.950 F2970.000 E3.81001
G1 X118.291 Y97.857 E3.84633
G1 X108.709 Y88.275 E4.29656
G1 X108.709 Y87.181 E4.33290
G1 X118.291 Y96.762 E4.78310
G1 X118.291 Y95.669 E4.81942
G1 X108.709 Y86.087 E5.26965
G1 X108.709 Y84.993 E5.30599
G1 X118.291 Y94.574 E5.75618
G1 X118.291 Y93.481 E5.79250
G1 X108.709 Y83.899 E6.24273
G1 X108.709 Y82.805 E6.27907
G1 X118.291 Y92.387 E6.72927
G1 X118.291 Y91.293 E6.76559
G1 X108.709 Y81.711 E7.21582
G1 X108.709 Y80.618 E7.25216
G1 X118.291 Y90.199 E7.70235
G1 X118.291 Y89.106 E7.73867
G1 X108.709 Y79.524 E8.18890
G1 X108.709 Y78.430 E8.22524
G1 X118.291 Y88.011 E8.67544
G1 X118.291 Y86.918 E8.71176
G1 X108.709 Y77.336 E9.16199
G1 X108.709 Y76.242 E9.19833
G1 X118.291 Y85.823 E9.64852
G1 X118.291 Y84.730 E9.68484
G1 X108.709 Y75.148 E10.13507
G1 X108.709 Y74.054 E10.17141
G1 X118.291 Y83.635 E10.62161
G1 X118.291 Y82.542 E10.65793
G1 X108.709 Y72.960 E11.10816
G1 X108.709 Y71.866 E11.14450
G1 X118.291 Y81.448 E11.59469
G1 X118.291 Y80.354 E11.63101
G1 X108.709 Y70.772 E12.08124
G1 X108.709 Y69.679 E12.11758
G1 X118.291 Y79.260 E12.56778
G1 X118.291 Y78.167 E12.60410
G1 X108.709 Y68.585 E13.05433
G1 X108.709 Y67.491 E13.09067
G1 X118.291 Y77.072 E13.54086
G1 X118.291 Y75.979 E13.57718
G1 X108.709 Y66.397 E14.02741
G1 X108.709 Y65.303 E14.06375
