; generated by Slic3r 0.8.5-dev on 2012-09-19 at 16:17:46

; layer_height = 0.3
; perimeters = 2
; solid_layers = 3
; fill_density = 0.35
; perimeter_speed = 90
; infill_speed = 190
; travel_speed = 200
; scale = 1
; nozzle_diameter = 0.5
; filament_diameter = 2.89
; extrusion_multiplier = 0.98
; single wall width = 0.70mm
; first layer single wall width = 0.80mm

G28 ; home all axes
G90 ; use absolute coordinates
G21 ; set units to millimeters
G92 E0
M82 ; use absolute distances for extrusion
G1 Z0.500 F12000.000
G1 X53.880 Y60.270
G1 F2100.000 E1.00000
G1 X54.480 Y59.690 F2970.000 E1.02751
G1 X55.160 Y59.170 E1.05574
G1 X55.630 Y58.870 E1.07412
G1 X56.390 Y58.490 E1.10213
G1 X57.180 Y58.200 E1.12988
G1 X57.720 Y58.050 E1.14836
G1 X58.560 Y57.910 E1.17643
G1 X59.400 Y57.860 E1.20418
G1 X110.880 Y57.870 E2.90146
G1 X111.440 Y57.910 E2.91997
G1 X112.280 Y58.050 E2.94804
G1 X113.090 Y58.290 E2.97590
G1 X113.610 Y58.490 E2.99427
G1 X114.370 Y58.870 E3.02228
G1 X114.840 Y59.170 E3.04066
G1 X115.520 Y59.690 E3.06889
G1 X115.930 Y60.070 E3.08732
G1 X116.310 Y60.480 E3.10575
G1 X116.830 Y61.160 E3.13397
G1 X117.130 Y61.630 E3.15236
G1 X117.510 Y62.390 E3.18037
G1 X117.800 Y63.180 E3.20812
G1 X117.950 Y63.720 E3.22659
G1 X118.090 Y64.560 E3.25467
G1 X118.140 Y65.400 E3.28241
G1 X118.130 Y94.870 E4.25403
G1 X118.090 Y95.430 E4.27254
G1 X117.950 Y96.270 E4.30062
G1 X117.710 Y97.080 E4.32847
G1 X117.510 Y97.600 E4.34684
G1 X117.130 Y98.360 E4.37485
G1 X116.830 Y98.830 E4.39324
G1 X116.310 Y99.510 E4.42146
G1 X115.930 Y99.920 E4.43989
G1 X115.520 Y100.300 E4.45832
G1 X114.840 Y100.820 E4.48654
G1 X114.370 Y101.120 E4.50493
G1 X113.610 Y101.500 E4.53294
G1 X112.820 Y101.790 E4.56069
G1 X112.280 Y101.940 E4.57917
G1 X111.440 Y102.080 E4.60724
G1 X110.600 Y102.130 E4.63499
G1 X59.120 Y102.120 E6.33227
G1 X58.560 Y102.080 E6.35078
G1 X57.720 Y101.940 E6.37885
G1 X56.910 Y101.700 E6.40671
G1 X56.390 Y101.500 E6.42507
G1 X55.630 Y101.120 E6.45309
G1 X55.160 Y100.820 E6.47147
G1 X54.480 Y100.300 E6.49970
G1 X54.070 Y99.920 E6.51813
G1 X53.690 Y99.510 E6.53656
G1 X53.170 Y98.830 E6.56478
G1 X52.870 Y98.360 E6.58316
G1 X52.490 Y97.600 E6.61118
G1 X52.200 Y96.810 E6.63892
G1 X52.050 Y96.270 E6.65740
G1 X51.910 Y95.430 E6.68548
G1 X51.860 Y94.590 E6.71322
G1 X51.870 Y65.120 E7.68484
G1 X51.910 Y64.560 E7.70335
G1 X52.050 Y63.720 E7.73142
G1 X52.290 Y62.910 E7.75928
G1 X52.490 Y62.390 E7.77765
G1 X52.870 Y61.630 E7.80566
G1 X53.170 Y61.160 E7.82404
G1 X53.690 Y60.480 E7.85227
G1 X53.799 Y60.359 E7.85765
G1 X54.330 Y60.910 F12000.000
G1 X54.910 Y60.330 F2970.000 E7.88469
G1 X55.330 Y59.990 E7.90251
G1 X55.780 Y59.680 E7.92052
G1 X56.250 Y59.410 E7.93839
G1 X56.750 Y59.170 E7.95668
G1 X57.260 Y58.980 E7.97462
G1 X57.780 Y58.830 E7.99247
G1 X58.310 Y58.720 E8.01031
G1 X58.860 Y58.650 E8.02859
G1 X59.400 Y58.630 E8.04641
G1 X111.140 Y58.650 E9.75226
G1 X111.690 Y58.720 E9.77054
G1 X112.220 Y58.830 E9.78839
G1 X112.740 Y58.980 E9.80623
G1 X113.250 Y59.170 E9.82417
G1 X113.750 Y59.410 E9.84246
G1 X114.220 Y59.680 E9.86033
G1 X114.670 Y59.990 E9.87835
G1 X115.090 Y60.330 E9.89616
G1 X115.670 Y60.910 E9.92320
G1 X116.010 Y61.330 E9.94102
G1 X116.320 Y61.780 E9.95904
G1 X116.590 Y62.250 E9.97691
G1 X116.830 Y62.750 E9.99519
G1 X117.020 Y63.260 E10.01314
G1 X117.170 Y63.780 E10.03098
G1 X117.280 Y64.310 E10.04883
G1 X117.350 Y64.860 E10.06711
G1 X117.350 Y95.130 E11.06510
G1 X117.280 Y95.680 E11.08338
G1 X117.170 Y96.210 E11.10122
G1 X117.020 Y96.730 E11.11907
G1 X116.830 Y97.240 E11.13701
G1 X116.590 Y97.740 E11.15530
G1 X116.320 Y98.210 E11.17317
G1 X116.010 Y98.660 E11.19118
G1 X115.670 Y99.080 E11.20900
G1 X115.090 Y99.660 E11.23604
G1 X114.670 Y100.000 E11.25386
G1 X114.220 Y100.310 E11.27187
G1 X113.750 Y100.580 E11.28974
G1 X113.250 Y100.820 E11.30803
G1 X112.740 Y101.010 E11.32597
G1 X112.220 Y101.160 E11.34382
G1 X111.690 Y101.270 E11.36166
G1 X111.140 Y101.340 E11.37994
G1 X110.600 Y101.360 E11.39776
G1 X58.860 Y101.340 E13.10361
G1 X58.310 Y101.270 E13.12189
G1 X57.780 Y101.160 E13.13974
G1 X57.260 Y101.010 E13.15758
G1 X56.750 Y100.820 E13.17552
G1 X56.250 Y100.580 E13.19381
G1 X55.780 Y100.310 E13.21168
G1 X55.330 Y100.000 E13.22970
G1 X54.910 Y99.660 E13.24751
G1 X54.330 Y99.080 E13.27456
G1 X53.990 Y98.660 E13.29237
G1 X53.680 Y98.210 E13.31039
G1 X53.410 Y97.740 E13.32826
G1 X53.170 Y97.240 E13.34654
G1 X52.980 Y96.730 E13.36449
G1 X52.830 Y96.210 E13.38233
G1 X52.720 Y95.680 E13.40018
G1 X52.650 Y95.130 E13.41846
G1 X52.650 Y64.860 E14.41645
G1 X52.720 Y64.310 E14.43473
G1 X52.830 Y63.780 E14.45257
G1 X52.980 Y63.260 E14.47042
G1 X53.170 Y62.750 E14.48836
G1 X53.410 Y62.250 E14.50665
G1 X53.680 Y61.780 E14.52452
G1 X53.990 Y61.330 E14.54253
G1 X54.254 Y61.003 E14.55639
G1 F2100.000 E13.55639
G1 Z0.800 F12000.000
G92 E0
G1 X77.512 Y89.518
G1 Z0.500
G1 F2100.000 E1.00000
G1 X77.832 Y89.639 F1980.000 E1.01128
G1 X77.832 Y93.832 E1.14952
G1 X72.089 Y93.832 E1.33888
G1 X71.994 Y93.316 E1.35617
G1 X74.190 Y92.483 E1.43361
G1 X75.979 Y91.249 E1.50524
G1 X77.433 Y89.608 E1.57754
G1 F2100.000 E0.57754
G1 Z0.800 F12000.000
G92 E0
G1 X92.168 Y89.639
G1 Z0.500
G1 F2100.000 E1.00000
G1 X92.488 Y89.518 F1980.000 E1.01128
G1 X94.021 Y91.249 E1.08752
G1 X95.810 Y92.484 E1.15920
G1 X98.006 Y93.316 E1.23661
G1 X97.911 Y93.832 E1.25390
G1 X92.168 Y93.832 E1.44325
G1 X92.168 Y89.759 E1.57754
G1 F2100.000 E0.57754
G1 Z0.800 F12000.000
G92 E0
G1 X60.168 Y93.832
G1 Z0.500
G1 F2100.000 E1.00000
G1 X60.168 Y66.168 F2970.000 E1.91209
G1 X73.832 Y66.168 E2.36260
G1 X73.832 Y73.068 E2.59009
G1 X96.168 Y73.068 E3.32649
G1 X96.168 Y66.168 E3.55398
G1 X109.832 Y66.168 E4.00449
G1 X109.832 Y93.832 E4.91657
G1 X102.089 Y93.832 E5.17187
G1 X101.994 Y93.316 E5.18916
G1 X104.190 Y92.484 E5.26656
G1 X105.850 Y91.338 E5.33306
G1 X105.850 Y91.338 E5.33306
G1 X105.979 Y91.249 E5.33825
G1 X107.420 Y89.622 E5.40990
G1 X108.431 Y87.697 E5.48157
G1 X108.951 Y85.587 E5.55324
G1 X108.951 Y83.413 E5.62490
G1 X108.431 Y81.303 E5.69656
G1 X107.420 Y79.378 E5.76824
G1 X105.979 Y77.751 E5.83989
G1 X104.190 Y76.516 E5.91157
G1 X102.158 Y75.746 E5.98323
G1 X100.000 Y75.484 E6.05488
G1 X97.842 Y75.746 E6.12654
G1 X95.810 Y76.516 E6.19819
G1 X94.021 Y77.751 E6.26987
G1 X93.010 Y78.892 E6.32013
G1 X92.835 Y78.892 E6.32591
G1 X92.612 Y79.317 E6.34173
G1 X92.168 Y79.208 E6.35681
G1 X92.168 Y75.333 E6.48455
G1 X77.832 Y75.333 E6.95719
G1 X77.832 Y78.763 E7.07026
G1 X77.612 Y78.878 E7.07845
G1 X75.979 Y77.751 E7.14387
G1 X75.979 Y77.751 E7.14389
G1 X74.189 Y76.516 E7.21558
G1 X72.158 Y75.746 E7.28720
G1 X70.001 Y75.484 E7.35884
G1 X69.847 Y75.502 E7.36394
G1 X69.847 Y75.502 E7.36394
G1 X67.843 Y75.746 E7.43050
G1 X65.810 Y76.516 E7.50217
G1 X64.021 Y77.751 E7.57385
G1 X62.580 Y79.378 E7.64549
G1 X61.569 Y81.303 E7.71721
G1 X61.049 Y83.413 E7.78884
G1 X61.049 Y85.587 E7.86050
G1 X61.569 Y87.698 E7.93219
G1 X62.508 Y89.486 E7.99877
G1 X62.508 Y89.486 E7.99877
G1 X62.580 Y89.622 E8.00386
G1 X64.020 Y91.248 E8.07545
G1 X65.812 Y92.484 E8.14721
G1 X67.203 Y93.012 E8.19627
G1 X67.203 Y93.012 E8.19628
G1 X68.005 Y93.316 E8.22457
G1 X67.911 Y93.832 E8.24187
G1 X60.288 Y93.832 E8.49320
G1 F2100.000 E7.49320
G1 Z0.800 F12000.000
G92 E0
G1 X76.794 Y78.671
G1 Z0.500
G1 F2100.000 E1.00000
G1 X77.540 Y77.925 F1980.000 E1.03477
G1 X77.832 Y78.046 E1.04521
G1 X77.832 Y79.361 E1.08855
G1 X77.512 Y79.482 E1.09983
G1 X76.873 Y78.761 E1.13160
G1 F2100.000 E0.13160
G1 Z0.800 F12000.000
G92 E0
G1 X76.743 Y79.772
G1 Z0.500
G1 F2100.000 E1.00000
G1 X75.740 Y78.639 F2970.000 E1.04988
G1 X75.811 Y78.568 E1.05319
G1 X75.466 Y78.330 E1.06700
G1 X75.466 Y78.330 E1.06701
G1 X73.830 Y77.201 E1.13255
G1 X71.972 Y76.497 E1.19805
G1 X70.000 Y76.257 E1.26355
G1 X68.028 Y76.497 E1.32906
G1 X66.170 Y77.201 E1.39457
G1 X64.534 Y78.330 E1.46011
G1 X63.217 Y79.817 E1.52561
G1 X62.292 Y81.577 E1.59115
G1 X61.817 Y83.506 E1.65665
G1 X61.817 Y85.494 E1.72217
G1 X62.292 Y87.423 E1.78769
G1 X63.217 Y89.183 E1.85322
G1 X64.533 Y90.670 E1.91870
G1 X66.170 Y91.799 E1.98427
G1 X67.971 Y92.482 E2.04775
G1 X67.971 Y92.482 E2.04775
G1 X68.028 Y92.503 E2.04976
G1 X70.000 Y92.743 E2.11527
G1 X71.972 Y92.503 E2.18077
G1 X73.831 Y91.799 E2.24630
G1 X75.466 Y90.670 E2.31181
G1 X76.784 Y89.182 E2.37734
G1 X77.708 Y87.424 E2.44283
G1 X77.981 Y86.313 E2.48053
G1 X78.600 Y86.388 E2.50109
G1 X78.600 Y94.600 E2.77183
G1 X59.400 Y94.600 E3.40485
G1 X59.400 Y65.400 E4.36756
G1 X74.600 Y65.400 E4.86870
G1 X74.600 Y72.300 E5.09619
G1 X95.400 Y72.300 E5.78196
G1 X95.400 Y65.400 E6.00945
G1 X110.600 Y65.400 E6.51059
G1 X110.600 Y94.600 E7.47331
G1 X91.400 Y94.600 E8.10632
G1 X91.400 Y86.388 E8.37706
G1 X92.019 Y86.313 E8.39762
G1 X92.292 Y87.423 E8.43530
G1 X93.216 Y89.183 E8.50083
G1 X94.534 Y90.670 E8.56634
G1 X96.170 Y91.799 E8.63187
G1 X98.028 Y92.503 E8.69738
G1 X100.001 Y92.743 E8.76293
G1 X100.001 Y92.743 E8.76293
G1 X100.385 Y92.790 E8.77566
G1 X100.385 Y92.696 E8.77874
G1 X101.909 Y92.511 E8.82936
G1 X101.909 Y92.511 E8.82936
G1 X101.972 Y92.503 E8.83147
G1 X103.830 Y91.799 E8.89698
G1 X105.466 Y90.670 E8.96252
G1 X106.784 Y89.183 E9.02802
G1 X107.708 Y87.423 E9.09355
G1 X108.183 Y85.494 E9.15906
G1 X108.183 Y83.506 E9.22458
G1 X107.708 Y81.577 E9.29009
G1 X106.784 Y79.817 E9.35562
G1 X105.466 Y78.330 E9.42113
G1 X103.830 Y77.201 E9.48666
G1 X101.972 Y76.497 E9.55217
G1 X100.000 Y76.257 E9.61768
G1 X98.028 Y76.497 E9.68318
G1 X96.170 Y77.201 E9.74869
G1 X94.534 Y78.330 E9.81422
G1 X93.356 Y79.660 E9.87280
G1 X93.299 Y79.660 E9.87467
G1 X93.216 Y79.818 E9.88055
G1 X93.216 Y79.818 E9.88055
G1 X92.292 Y81.577 E9.94606
G1 X92.019 Y82.687 E9.98374
G1 X91.400 Y82.612 E10.00430
G1 X91.400 Y76.101 E10.21896
G1 X78.600 Y76.101 E10.64097
G1 X78.600 Y82.612 E10.85563
G1 X77.981 Y82.687 E10.87618
G1 X77.708 Y81.576 E10.91389
G1 X76.811 Y79.870 E10.97745
G1 F2100.000 E9.97745
G1 Z0.800 F12000.000
G92 E0
G1 X91.488 Y85.459
G1 Z0.500
G1 F2100.000 E1.00000
G1 X91.623 Y85.256 F2970.000 E1.00803
G1 X91.623 Y83.744 E1.05788
G1 X91.445 Y83.447 E1.06929
G1 X91.611 Y83.660 F12000.000
G1 X91.777 Y83.478 F2970.000 E1.07739
G1 X91.977 Y83.382 E1.08471
G1 F2100.000 E0.08471
G1 Z0.800 F12000.000
G92 E0
G1 X91.611 Y85.340
G1 Z0.500
G1 F2100.000 E1.00000
G1 X91.777 Y85.522 F2970.000 E1.00810
G1 X91.977 Y85.618 E1.01541
G1 X91.488 Y85.459 F12000.000
G1 X91.445 Y85.553 F2970.000 E1.01883
G1 F2100.000 E0.01883
G1 Z0.800 F12000.000
G92 E0
G1 X78.555 Y85.553
G1 Z0.500
G1 F2100.000 E1.00000
G1 X78.386 Y85.338 F2970.000 E1.00902
G1 X78.376 Y84.887 F12000.000
G1 X78.386 Y85.338 F2970.000 E1.02387
G1 X78.014 Y85.625 E1.03937
G1 X78.376 Y84.887 F12000.000
G1 X78.376 Y84.507 F2970.000 E1.05191
G1 X78.389 Y83.660 E1.07986
G1 X78.555 Y83.447 F12000.000
G1 X78.389 Y83.660 F2970.000 E1.08874
G1 X78.023 Y83.382 E1.10388
G1 F2100.000 E0.10388
G1 Z0.800 F12000.000
G92 E0
G1 X76.881 Y91.438
G1 Z0.500
G1 F2100.000 E1.00000
G1 X77.248 Y91.963 F2970.000 E1.03026
G1 X76.877 Y93.327 E1.09704
G1 X75.860 Y91.875 E1.18078
G1 F2100.000 E0.18078
G1 Z0.800 F12000.000
G92 E0
G1 X75.184 Y92.802
G1 Z0.500
G1 F2100.000 E1.00000
G1 X75.551 Y93.327 F2970.000 E1.03026
G1 F2100.000 E0.03026
G1 Z0.800 F12000.000
G92 E0
G1 X69.620 Y93.668
G1 Z0.500
G1 F2100.000 E1.00000
G1 X71.768 Y93.560 F2970.000 E1.07092
G1 F2100.000 E0.07092
G1 Z0.800 F12000.000
G92 E0
G1 X68.907 Y93.603
G1 Z0.500
G1 F2100.000 E1.00000
G1 X69.620 Y93.668 F2970.000 E1.02362
G1 F2100.000 E0.02362
G1 Z0.800 F12000.000
G92 E0
G1 X68.225 Y93.574
G1 Z0.500
G1 F2100.000 E1.00000
G1 X68.907 Y93.603 F2970.000 E1.02250
G1 F2100.000 E0.02250
G1 Z0.800 F12000.000
G92 E0
G1 X64.567 Y92.423
G1 Z0.500
G1 F2100.000 E1.00000
G1 X64.935 Y92.948 F2970.000 E1.02306
G1 X64.180 Y93.327 E1.05348
G1 X60.993 Y88.776 E1.25354
G1 X60.752 Y89.888 E1.29453
G1 X63.160 Y93.327 E1.44569
G1 X62.139 Y93.327 E1.48243
G1 X60.752 Y91.345 E1.56954
G1 X60.752 Y92.802 E1.62201
G1 X61.119 Y93.327 E1.64507
G1 F2100.000 E0.64507
G1 Z0.800 F12000.000
G92 E0
G1 X61.119 Y80.165
G1 Z0.500
G1 F2100.000 E1.00000
G1 X60.752 Y79.640 F2970.000 E1.02112
G1 X61.808 Y79.809 E1.05640
G1 X60.752 Y78.301 E1.11713
G1 X60.752 Y76.961 E1.16131
G1 X62.235 Y79.079 E1.24660
G1 X62.759 Y78.488 F12000.000
G1 X60.752 Y75.622 F2970.000 E1.36201
G1 X60.752 Y74.283 E1.40619
G1 X63.282 Y77.896 E1.55173
G1 X63.830 Y77.339 F12000.000
G1 X60.752 Y72.943 F2970.000 E1.72876
G1 X60.752 Y71.604 E1.77294
G1 X64.462 Y76.903 E1.98633
G1 X65.095 Y76.466 F12000.000
G1 X60.752 Y70.264 F2970.000 E2.23609
G1 X60.752 Y68.925 E2.28028
G1 X65.743 Y76.053 E2.56731
G1 X66.484 Y75.772 F12000.000
G1 X60.752 Y67.586 F2970.000 E2.89698
G1 X61.051 Y66.673 E2.92865
G1 X67.225 Y75.491 E3.28374
G1 X67.987 Y75.239 F12000.000
G1 X61.989 Y66.673 F2970.000 E3.62870
G1 X62.927 Y66.673 E3.65964
G1 X68.851 Y75.134 E4.00037
G1 X69.715 Y75.029 E4.02910
G1 X63.864 Y66.673 E4.36560
G1 X64.802 Y66.673 E4.39654
G1 X70.580 Y74.924 E4.72882
G1 X71.678 Y75.154 E4.76585
G1 X65.740 Y66.673 E5.10738
G1 X66.678 Y66.673 E5.13831
G1 X72.747 Y75.341 E5.48735
G1 X74.024 Y75.825 E5.53240
G1 X67.616 Y66.673 E5.90094
G1 X68.554 Y66.673 E5.93187
G1 X73.248 Y73.378 E6.20187
G1 X73.385 Y73.573 F12000.000
G1 X75.540 Y76.651 F2970.000 E6.32581
G1 F2100.000 E5.32581
G1 Z0.800 F12000.000
G92 E0
G1 X77.248 Y76.411
G1 Z0.500
G1 F2100.000 E1.00000
G1 X75.261 Y73.573 F2970.000 E1.11430
G1 X74.323 Y73.573 E1.14523
G1 X77.151 Y77.613 E1.30791
G1 F2100.000 E0.30791
G1 Z0.800 F12000.000
G92 E0
G1 X77.248 Y75.072
G1 Z0.500
G1 F2100.000 E1.00000
G1 X76.199 Y73.573 F2970.000 E1.06036
G1 X77.136 Y73.573 E1.09129
G1 X78.015 Y74.828 E1.14180
G1 X78.952 Y74.828 E1.17273
G1 X78.074 Y73.574 E1.22324
G1 X79.012 Y73.573 E1.25420
G1 X79.891 Y74.827 E1.30471
G1 X80.828 Y74.828 E1.33564
G1 X79.950 Y73.573 E1.38615
G1 X80.888 Y73.573 E1.41709
G1 X81.766 Y74.828 E1.46760
G1 X82.704 Y74.828 E1.49853
G1 X81.825 Y73.574 E1.54904
G1 X82.764 Y73.573 E1.57999
G1 X83.642 Y74.827 E1.63051
G1 X84.580 Y74.827 E1.66144
G1 X83.702 Y73.573 E1.71195
G1 X84.639 Y73.573 E1.74288
G1 X85.517 Y74.828 E1.79339
G1 X86.455 Y74.828 E1.82432
G1 X85.577 Y73.574 E1.87483
G1 X86.515 Y73.574 E1.90577
G1 X87.393 Y74.828 E1.95628
G1 X88.331 Y74.827 E1.98724
G1 X87.453 Y73.573 E2.03775
G1 X88.391 Y73.573 E2.06868
G1 X89.269 Y74.828 E2.11919
G1 X90.206 Y74.828 E2.15012
G1 X89.328 Y73.573 E2.20063
G1 X90.266 Y73.574 E2.23156
G1 X91.144 Y74.828 E2.28207
G1 X92.083 Y74.827 E2.31303
G1 X91.204 Y73.573 E2.36354
G1 X92.142 Y73.573 E2.39448
G1 X93.020 Y74.828 E2.44499
G1 X92.752 Y74.445 F12000.000
G1 X94.470 Y76.898 F2970.000 E2.54377
G1 X93.838 Y77.334 F12000.000
G1 X92.752 Y75.784 F2970.000 E2.60620
G1 F2100.000 E1.60620
G1 Z0.800 F12000.000
G92 E0
G1 X95.102 Y76.461
G1 Z0.500
G1 F2100.000 E1.00000
G1 X93.080 Y73.573 F2970.000 E1.11630
G1 X94.017 Y73.574 E1.14723
G1 X95.751 Y76.050 E1.24694
G1 X96.493 Y75.768 F12000.000
G1 X94.956 Y73.573 F2970.000 E1.33534
G1 X95.893 Y73.573 E1.36627
G1 X97.234 Y75.487 E1.44335
G1 X97.997 Y75.238 F12000.000
G1 X96.752 Y73.460 F2970.000 E1.51494
G1 X96.752 Y72.121 E1.55912
G1 X98.861 Y75.133 E1.68042
G1 X99.726 Y75.028 E1.70916
G1 X96.752 Y70.781 E1.88018
G1 X96.752 Y69.442 E1.92436
G1 X100.665 Y75.031 E2.14942
G1 X101.690 Y75.155 E2.18348
G1 X96.752 Y68.103 E2.46750
G1 X96.752 Y66.764 E2.51168
G1 X102.762 Y75.346 E2.85732
G1 X104.038 Y75.831 E2.90237
G1 X97.626 Y66.674 E3.27114
G1 X98.565 Y66.673 E3.30210
G1 X105.561 Y76.665 E3.70450
G1 F2100.000 E2.70450
G1 Z0.800 F12000.000
G92 E0
G1 X109.248 Y76.573
G1 Z0.500
G1 F2100.000 E1.00000
G1 X102.316 Y66.673 F2970.000 E1.39869
G1 X103.254 Y66.673 E1.42962
G1 X109.248 Y75.234 E1.77438
G1 X109.248 Y73.895 E1.81856
G1 X104.192 Y66.673 E2.10938
G1 X105.129 Y66.674 E2.14031
G1 X109.248 Y72.556 E2.37719
G1 X109.248 Y71.216 E2.42139
G1 X106.068 Y66.673 E2.60432
G1 X107.005 Y66.673 E2.63525
G1 X109.248 Y69.876 E2.76425
G1 X109.248 Y68.537 E2.80843
G1 X107.943 Y66.673 E2.88349
G1 X108.881 Y66.673 E2.91442
G1 X109.248 Y67.198 E2.93554
G1 F2100.000 E1.93554
G1 Z0.800 F12000.000
G92 E0
G1 X101.378 Y66.674
G1 Z0.500
G1 F2100.000 E1.00000
